!!!COM: Haydn, Franz Joseph
!!!OPR: Symphony in E-flat Major
!!!OTL: Menuetto and Trio
!!!OMV: 3
!!!SCT: H I:103
!!!SCA: Thematisch-bibliographisches Werkevererzeichnis (A. van Hoboken)
!!!YOR: Dover Edition; reprint of Eulenburg Edition
!!!EED: Frances Bennion
!!!ENC: Frances Bennion
!!!CDT: 1732/3/31/-1809/5/31/
!!!OCY: Österreich
!!!YEC: Copyright (c) 1994, 2000 Center for Computer Assisted Research in the Humanities
!!!YEM: Rights to all derivative editions reserved.
!!!YEM: Refer to licensing agreement for further details.
!!!YEN: United States of America
**kern	**dynam	**kern	**dynam	**kern	**dynam	**kern	**dynam	**kern	**dynam	**kern	**dynam	**kern	**dynam	**kern	**dynam	**kern	**dynam	**kern	**dynam	**kern	**dynam
*I:Flauto 1, 2	*I:Flauto 1, 2	*I:Viola	*I:Viola	*I:Violoncello e Basso	*I:Violoncello e Basso	*I:Oboe 1, 2	*I:Oboe 1, 2	*I:Clarinetto 1, 2 in Bb	*I:Clarinetto 1, 2 in Bb	*I:Fagotto 1, 2	*I:Fagotto 1, 2	*I:Corno 1, 2 in Eb	*I:Corno 1, 2 in Eb	*I:Tromba 1, 2 in Eb	*I:Tromba 1, 2 in Eb	*I:Timpani in Eb, Bb	*I:Timpani in Eb, Bb	*I:Violino I	*I:Violino I	*I:Violino II	*I:Violino II
*>[A,A,B,B,C,C,D,D]	*	*>[A,A,B,B,C,C,D,D]	*	*>[A,A,B,B,C,C,D,D]	*	*>[A,A,B,B,C,C,D,D]	*	*>[A,A,B,B,C,C,D,D]	*	*>[A,A,B,B,C,C,D,D]	*	*>[A,A,B,B,C,C,D,D]	*	*>[A,A,B,B,C,C,D,D]	*	*>[A,A,B,B,C,C,D,D]	*	*>[A,A,B,B,C,C,D,D]	*	*>[A,A,B,B,C,C,D,D]	*
*>A	*	*>A	*	*>A	*	*>A	*	*>A	*	*>A	*	*>A	*	*>A	*	*>A	*	*>A	*	*>A	*
*clefG2	*	*clefC3	*	*clefF4	*	*clefG2	*	*clefG2	*	*clefF4	*	*clefG2	*	*clefG2	*	*clefF4	*	*clefG2	*	*clefG2	*
*k[b-e-a-]	*	*k[b-e-a-]	*	*k[b-e-a-]	*	*k[b-e-a-]	*	*k[b-]	*	*k[b-e-a-]	*	*k[]	*	*k[]	*	*k[]	*	*k[b-e-a-]	*	*k[b-e-a-]	*
*E-:	*	*E-:	*	*E-:	*	*E-:	*	*E-:	*	*E-:	*	*E-:	*	*E-:	*	*E-:	*	*E-:	*	*E-:	*
*M3/4	*	*M3/4	*	*M3/4	*	*M3/4	*	*M3/4	*	*M3/4	*	*M3/4	*	*M3/4	*	*M3/4	*	*M3/4	*	*M3/4	*
! Menuetto	!	! Menuetto	!	! Menuetto	!	! Menuetto	!	! Menuetto	!	! Menuetto	!	! Menuetto	!	! Menuetto	!	! Menuetto	!	! Menuetto	!	! Menuetto	!
*tb16	*	*tb16	*	*tb16	*	*tb16	*	*tb16	*	*tb16	*	*tb16	*	*tb16	*	*tb16	*	*tb16	*	*tb16	*
=0-	=0-	=0-	=0-	=0-	=0-	=0-	=0-	=0-	=0-	=0-	=0-	=0-	=0-	=0-	=0-	=0-	=0-	=0-	=0-	=0-	=0-
4bb-\xx	f	4r	.	4r	.	4r	.	4r	.	4r	.	4r	.	4r	.	4r	.	4b-'\xx	f	4r	.
2ryy	.	2ryy	.	2ryy	.	2ryy	.	2ryy	.	2ryy	.	2ryy	.	2ryy	.	2ryy	.	2ryy	.	2ryy	.
=1	=1	=1	=1	=1	=1	=1	=1	=1	=1	=1	=1	=1	=1	=1	=1	=1	=1	=1	=1	=1	=1
! (32cccP/LLL	!	!	!	!	!	!	!	!	!	! a 2	!	!	!	!	!	!	!	! (32ccP/LLL	!	!	!
! 32bb-P/	!	!	!	!	!	!	!	!	!	!	!	!	!	!	!	!	!	! 32b-P/	!	!	!
! 32aaP/JJJ	!	!	!	!	!	!	!	!	!	!	!	!	!	!	!	!	!	! 32aP/JJJ	!	!	!
*	*	*	*	*	*	*^	*	*^	*	*	*	*^	*	*^	*	*	*	*	*	*	*
&(4bb-pz\)	z	4e-/xx 4G/	f	4E-\xx	f	4ee-\xx	4g\	f	4cc\xx	4a\	f	4E-\xx	f	4cc/xx	4c/	f	4cc/xx	4c/	f	4E\xx	f	&(4b-pz\)	z	4e-/xx 4G/	f
8eee-\&)	.	4r	.	4r	.	4r	4r	.	4r	4r	.	4r	.	4r	4r	.	4r	4r	.	4r	.	8ee-\&)	.	4r	.
8r	.	.	.	.	.	.	.	.	.	.	.	.	.	.	.	.	.	.	.	.	.	8r	.	.	.
4eee-'\	.	4r	.	4r	.	4r	4r	.	4r	4r	.	4r	.	4r	4r	.	4r	4r	.	4r	.	4ee-'\	.	4r	.
=2	=2	=2	=2	=2	=2	=2	=2	=2	=2	=2	=2	=2	=2	=2	=2	=2	=2	=2	=2	=2	=2	=2	=2	=2	=2
(16eee-z\LK	z	4e-\ 4c\	.	4AA-/	.	4ee-\	4f\	.	4dd\	4b-\	.	4AA-/	.	4cc/	4c/	.	4cc/	4c/	.	4E\	.	(16ee-z/LK	z	4e-/ 4c/	.
8.ff\J)	.	.	.	.	.	.	.	.	.	.	.	.	.	.	.	.	.	.	.	.	.	8.f/J)	.	.	.
8ff'\	.	4r	.	4r	.	4r	4r	.	4r	4r	.	4r	.	4r	4r	.	4r	4r	.	4r	.	8f'/	.	4r	.
8r	.	.	.	.	.	.	.	.	.	.	.	.	.	.	.	.	.	.	.	.	.	8r	.	.	.
4ff'\	.	4r	.	4r	.	4r	4r	.	4r	4r	.	4r	.	4r	4r	.	4r	4r	.	4r	.	4f'/	.	4r	.
=3	=3	=3	=3	=3	=3	=3	=3	=3	=3	=3	=3	=3	=3	=3	=3	=3	=3	=3	=3	=3	=3	=3	=3	=3	=3
! (32ggP/LLL	!	!	!	!	!	!	!	!	!	!	!	!	!	!	!	!	!	!	!	!	!	! (32gP/LLL	!	!	!
! 32ffP/	!	!	!	!	!	!	!	!	!	!	!	!	!	!	!	!	!	!	!	!	!	! 32fP/	!	!	!
! 32eeP/JJJ	!	!	!	!	!	!	!	!	!	!	!	!	!	!	!	!	!	!	!	!	!	! 32eP/JJJ	!	!	!
&(4ffp\)	.	4A-/ 4F/	.	4BB-/	.	4dd/	4f/	.	4ee\	4b-\	.	4BB-/	.	4dd\	4g\	.	4dd\	4g\	.	4BB/	.	&(4fp/)	.	4d/ 4A-/	.
8bb-\&)	.	4r	.	4r	.	4r	4r	.	4r	4r	.	4r	.	4r	4r	.	4r	4r	.	4r	.	8b-\&)	.	4r	.
8r	.	.	.	.	.	.	.	.	.	.	.	.	.	.	.	.	.	.	.	.	.	8r	.	.	.
4bb-'\	.	4r	.	4r	.	4r	4r	.	4r	4r	.	4r	.	4r	4r	.	4r	4r	.	4r	.	4b-'\	.	4r	.
=4	=4	=4	=4	=4	=4	=4	=4	=4	=4	=4	=4	=4	=4	=4	=4	=4	=4	=4	=4	=4	=4	=4	=4	=4	=4
(16bb-z\LK	z	4G/ 4E-/	.	4E-\	.	4ee-\	4g\	.	4ff\	4a\	.	4E-\	.	4ee\	4cc\	.	4ee\	4cc\	.	4E\	.	(16b-z/LK	z	4e-/ 4G/	.
8.ee-\J)	.	.	.	.	.	.	.	.	.	.	.	.	.	.	.	.	.	.	.	.	.	8.e-/J)	.	.	.
8ee-'\	.	4r	.	4r	.	4r	4r	.	4r	4r	.	4r	.	4r	4r	.	4r	4r	.	4r	.	8e-'/	.	4r	.
8r	.	.	.	.	.	.	.	.	.	.	.	.	.	.	.	.	.	.	.	.	.	8r	.	.	.
4gg\	.	4e-\	.	4e-\	.	4gg\	4b-\	.	4aa\	4ff\	.	4e-\	.	4ee\	4cc\	.	4ee\	4cc\	.	4E\	.	4gg\	.	4gg\ 4b-\	.
=5	=5	=5	=5	=5	=5	=5	=5	=5	=5	=5	=5	=5	=5	=5	=5	=5	=5	=5	=5	=5	=5	=5	=5	=5	=5
! (16ffP/LL	!	!	!	!	!	!	!	!	!	!	!	!	!	!	!	!	!	!	!	!	!	! (16ffP/LL	!	!	!
! 16ggP/JJ	!	!	!	!	!	!	!	!	!	!	!	!	!	!	!	!	!	!	!	!	!	! 16ggP/JJ	!	!	!
2aa-pz\)	z	2dz\	z	2dz\	z	2aa-z/	2.b-\	z	2bb-z\	2gg\	z	2dz\	z	2ddz\	2g\	z	2ddz\	2g\	z	4BBz/	z	2aa-pz\)	z	2ffz\ 2b-\	z
.	.	.	.	.	.	.	.	.	.	.	.	.	.	.	.	.	.	.	.	8BB/L	.	.	.	.	.
.	.	.	.	.	.	.	.	.	.	.	.	.	.	.	.	.	.	.	.	8BB/J	.	.	.	.	.
4gg\	.	4e-\	.	4e-\	.	4gg/	.	.	4aa\	4ff\	.	4e-\	.	4ee\	4cc\	.	4ee\	4cc\	.	4E\	.	4gg\	.	4gg\ 4b-\	.
=6	=6	=6	=6	=6	=6	=6	=6	=6	=6	=6	=6	=6	=6	=6	=6	=6	=6	=6	=6	=6	=6	=6	=6	=6	=6
(16ff\LL	.	2.f\	.	2.A-\	.	8ff/	2.dd\	.	8gg/	8gg\	.	2.A-\	.	2.dd\	2.g\	.	4ff\	4dd\	.	4r	.	(16ff\LL	.	2.dd/ 2.f/	.
16aa-\JJ)	.	.	.	.	.	.	.	.	.	.	.	.	.	.	.	.	.	.	.	.	.	16aa-\JJ)	.	.	.
8r	.	.	.	.	.	8r	.	.	8r	8ryy	.	.	.	.	.	.	.	.	.	.	.	8r	.	.	.
(16aa-\LL	.	.	.	.	.	8ccc/	.	.	8bb-/	8bb-\	.	.	.	.	.	.	4r	4r	.	4r	.	(16aa-\LL	.	.	.
16ccc\JJ)	.	.	.	.	.	.	.	.	.	.	.	.	.	.	.	.	.	.	.	.	.	16ccc\JJ)	.	.	.
8r	.	.	.	.	.	8r	.	.	8r	8ryy	.	.	.	.	.	.	.	.	.	.	.	8r	.	.	.
(16dd\LL	.	.	.	.	.	8dd/	.	.	8ee/	8b-\	.	.	.	.	.	.	4dd'\	4g\	.	4BB/	.	(16dd\LL	.	.	.
16ff\JJ)	.	.	.	.	.	.	.	.	.	.	.	.	.	.	.	.	.	.	.	.	.	16ff\JJ)	.	.	.
8r	.	.	.	.	.	8r	.	.	8r	8ryy	.	.	.	.	.	.	.	.	.	.	.	8r	.	.	.
=7	=7	=7	=7	=7	=7	=7	=7	=7	=7	=7	=7	=7	=7	=7	=7	=7	=7	=7	=7	=7	=7	=7	=7	=7	=7
8ee-\	.	8g\	.	8G\	.	8ee-/	8ee-\	.	8ff\	8a\	.	8G\	.	4ee'\	4cc\	.	4cc/	4e'/	.	4E\	.	8ee-\	.	8ee-/ 8e-/	.
8r	.	8r	.	8r	.	8r	8r	.	8r	8r	.	8r	.	.	.	.	.	.	.	.	.	8r	.	8r	.
8aa-\	.	8B-/	.	8D\	.	8aa-\	8ff\	.	8gg\	8b-\	.	8D\	.	4ff'\	4dd\	.	4dd'\	4g\	.	4BB/	.	8aa-\	.	8ff\	.
8r	.	8r	.	8r	.	8r	8r	.	8r	8r	.	8r	.	.	.	.	.	.	.	.	.	8r	.	8r	.
8gg\	.	8B-/	.	8E-\	.	8gg\	8ee-\	.	8ff\	8a\	.	8E-\	.	4ee'\	4cc\	.	4ee'\	4cc\	.	4E\	.	8gg\	.	8ee-\	.
8r	.	8r	.	8r	.	8r	8r	.	8r	8r	.	8r	.	.	.	.	.	.	.	.	.	8r	.	8r	.
=8	=8	=8	=8	=8	=8	=8	=8	=8	=8	=8	=8	=8	=8	=8	=8	=8	=8	=8	=8	=8	=8	=8	=8	=8	=8
*	*	*	*	*	*	*v	*v	*	*	*	*	*	*	*	*	*	*	*	*	*	*	*	*	*	*
(16ffz\LK	z	4B-/	.	4B-\	.	4ff\ 4dd\	.	4ee\	4g\	.	4B-\	.	4dd\	4g\	.	4dd\	4g\	.	4BB/	.	(16ffz\LK	z	4dd\	.
8.b-\J)	.	.	.	.	.	.	.	.	.	.	.	.	.	.	.	.	.	.	.	.	8.b-\J)	.	.	.
8b-'\	.	4r	.	4r	.	4r	.	4r	4r	.	4r	.	4r	4r	.	4r	4r	.	4r	.	8b-'\	.	4r	.
8r	.	.	.	.	.	.	.	.	.	.	.	.	.	.	.	.	.	.	.	.	8r	.	.	.
4r	.	4r	.	4r	.	4r	.	4r	4r	.	4r	.	4r	4r	.	4r	4r	.	4r	.	4r	.	4r	.
=9	=9	=9	=9	=9	=9	=9	=9	=9	=9	=9	=9	=9	=9	=9	=9	=9	=9	=9	=9	=9	=9	=9	=9	=9
*	*	*	*	*	*	*	*	*v	*v	*	*	*	*	*	*	*	*	*	*	*	*	*	*	*
!	!	!	!	!	!	!	!	! II	!	!	!	!	!	!	!	!	!	!	!	!	!	!	!
!	!	!	!	!	!	!	!	!	!	!	!	!	!	!	!	!	!	!	!	!	!	!	!
*	*	*	*	*	*	*	*	*	*	*	*	*	*	*	*v	*v	*	*	*	*	*	*	*
2.r	.	2.r	.	2.r	.	2.r	.	(16g/LK	.	(16f\LK	.	(16dd/LK	16dd\LK	.	2.r	.	2.r	.	2.r	.	2.r	.
.	.	.	.	.	.	.	.	8.c/J)	.	8.B-\J)	.	8.g/J)	8.g\J	.	.	.	.	.	.	.	.	.
.	.	.	.	.	.	.	.	8c'/	.	8B-'\	.	8g'/	8g\	.	.	.	.	.	.	.	.	.
.	.	.	.	.	.	.	.	8r	.	8r	.	8r	8ryy	.	.	.	.	.	.	.	.	.
.	.	.	.	.	.	.	.	4r	.	4r	.	4r	4ryy	.	.	.	.	.	.	.	.	.
=10	=10	=10	=10	=10	=10	=10	=10	=10	=10	=10	=10	=10	=10	=10	=10	=10	=10	=10	=10	=10	=10	=10
!	!	!	!	!	!	!	!	! I	!	!	!	!	!	!	!	!	!	!	!	!	!	!
*	*	*	*	*	*	*	*	*	*	*	*	*v	*v	*	*	*	*	*	*	*	*	*
(16fff\LK	.	4r	.	4r	.	(16ff\LK	.	(16gg\LK	.	4r	.	4r	.	4r	.	4r	.	4r	.	4r	.
8.bb-\J)	.	.	.	.	.	8.b-\J)	.	8.cc\J)	.	.	.	.	.	.	.	.	.	.	.	.	.
8bb-'\	.	4r	.	4r	.	8b-'\	.	8cc'\	.	4r	.	4r	.	4r	.	4r	.	4r	.	4r	.
8r	.	.	.	.	.	8r	.	8r	.	.	.	.	.	.	.	.	.	.	.	.	.
=:!!:	=:!!:	=:!!:	=:!!:	=:!!:	=:!!:	=:!!:	=:!!:	=:!!:	=:!!:	=:!!:	=:!!:	=:!!:	=:!!:	=:!!:	=:!!:	=:!!:	=:!!:	=:!!:	=:!!:	=:!!:	=:!!:
*>B	*	*>B	*	*>B	*	*>B	*	*>B	*	*>B	*	*>B	*	*>B	*	*>B	*	*>B	*	*>B	*
!	!	!	!	!	!	!	!	!	!	!	!	!	!	!	!	!	!	! legato	!	!	!
4r	.	4r	.	4r	.	4r	.	4r	.	4r	.	4r	.	4r	.	4r	.	4f/	p	4r	.
2ryy	.	2ryy	.	2ryy	.	2ryy	.	2ryy	.	2ryy	.	2ryy	.	2ryy	.	2ryy	.	2ryy	.	2ryy	.
=11	=11	=11	=11	=11	=11	=11	=11	=11	=11	=11	=11	=11	=11	=11	=11	=11	=11	=11	=11	=11	=11
2.r	.	2A-/	p	2D\	p	2.r	.	2.r	.	2.r	.	2.r	.	2.r	.	2.r	.	(8f/L	.	2B-/	p
.	.	.	.	.	.	.	.	.	.	.	.	.	.	.	.	.	.	8B-/J)	.	.	.
.	.	.	.	.	.	.	.	.	.	.	.	.	.	.	.	.	.	(4B-/	.	.	.
.	.	4r	.	4r	.	.	.	.	.	.	.	.	.	.	.	.	.	4g-/)	.	4r	.
=12	=12	=12	=12	=12	=12	=12	=12	=12	=12	=12	=12	=12	=12	=12	=12	=12	=12	=12	=12	=12	=12
2.r	.	2G-/	.	2E-\	.	2.r	.	2.r	.	2.r	.	2.r	.	2.r	.	2.r	.	(8g-/L	.	2B-/	.
.	.	.	.	.	.	.	.	.	.	.	.	.	.	.	.	.	.	8B-/J)	.	.	.
.	.	.	.	.	.	.	.	.	.	.	.	.	.	.	.	.	.	4B-/	.	.	.
.	.	4r	.	4r	.	.	.	.	.	.	.	.	.	.	.	.	.	4g-/	.	4r	.
=13	=13	=13	=13	=13	=13	=13	=13	=13	=13	=13	=13	=13	=13	=13	=13	=13	=13	=13	=13	=13	=13
!	!	!	!	!	!	!	!	! I Solo	!	! I Solo	!	!	!	!	!	!	!	!	!	!	!
*	*	*	*	*	*	*	*	*	*	*	*	*^	*	*	*	*	*	*	*	*	*
2.r	.	(4g-'\	.	(4C-'/	.	2.r	.	[2.dd-\	p	[2.G-\	p	[2.cc/	[2.c/	p	2.r	.	2.r	.	(4cc-'\	.	(4e-'/	.
.	.	4g-'\	.	4C-'/	.	.	.	.	.	.	.	.	.	.	.	.	.	.	4cc-'\	.	4e-'/	.
.	.	4g-'\)	.	4C-'/)	.	.	.	.	.	.	.	.	.	.	.	.	.	.	4cc-'\)	.	4e-'/)	.
=14	=14	=14	=14	=14	=14	=14	=14	=14	=14	=14	=14	=14	=14	=14	=14	=14	=14	=14	=14	=14	=14	=14
2.r	.	2.g-\	.	2.C-/	.	2.r	.	2.dd-\]	.	2.G-\]	.	2.cc/]	2.c/]	.	2.r	.	2.r	.	4.cc-\	.	2.e-/	.
.	.	.	.	.	.	.	.	.	.	.	.	.	.	.	.	.	.	.	(8b-/L	.	.	.
.	.	.	.	.	.	.	.	.	.	.	.	.	.	.	.	.	.	.	8a-/	.	.	.
.	.	.	.	.	.	.	.	.	.	.	.	.	.	.	.	.	.	.	8g-/J)	.	.	.
=15	=15	=15	=15	=15	=15	=15	=15	=15	=15	=15	=15	=15	=15	=15	=15	=15	=15	=15	=15	=15	=15	=15
*	*	*	*	*	*	*	*	*	*	*	*	*v	*v	*	*	*	*	*	*	*	*	*
!	!	!	!	!	!	!	!	!	!	!	!	! I	!	!	!	!	!	!	!	!	!
!	!	!	!	!	!	!	!	!	!	!	!	!	!	!	!	!	!	!	!	!	!
2.r	.	(2.A-/	.	(2.D-\	.	2.r	.	2.b-\	.	(2.c-\	.	(2.dd\	.	2.r	.	2.r	.	4f/	.	(2.c-/	.
.	.	.	.	.	.	.	.	.	.	.	.	.	.	.	.	.	.	(8f/L	.	.	.
.	.	.	.	.	.	.	.	.	.	.	.	.	.	.	.	.	.	8g-/	.	.	.
.	.	.	.	.	.	.	.	.	.	.	.	.	.	.	.	.	.	8a-/	.	.	.
.	.	.	.	.	.	.	.	.	.	.	.	.	.	.	.	.	.	8f/J)	.	.	.
=16	=16	=16	=16	=16	=16	=16	=16	=16	=16	=16	=16	=16	=16	=16	=16	=16	=16	=16	=16	=16	=16
2.r	.	4B-/)	.	4GG-/)	.	2.r	.	4cc\	.	4B-\)	.	4ee-\)	.	2.r	.	2.r	.	(4g-/	.	4B-/)	.
.	.	4r	.	4r	.	.	.	4r	.	4r	.	4r	.	.	.	.	.	4b-\	.	4r	.
.	.	4r	.	4r	.	.	.	4r	.	4r	.	4r	.	.	.	.	.	4dd-\)	.	4r	.
=17	=17	=17	=17	=17	=17	=17	=17	=17	=17	=17	=17	=17	=17	=17	=17	=17	=17	=17	=17	=17	=17
2.r	.	(2.A-/	.	(2.D-\	.	2.r	.	2.b-\	.	(2.A-\	.	(2.dd\	.	2.r	.	2.r	.	4f/	.	(2.c-/	.
.	.	.	.	.	.	.	.	.	.	.	.	.	.	.	.	.	.	(8f/L	.	.	.
.	.	.	.	.	.	.	.	.	.	.	.	.	.	.	.	.	.	8g-/	.	.	.
.	.	.	.	.	.	.	.	.	.	.	.	.	.	.	.	.	.	8a-/	.	.	.
.	.	.	.	.	.	.	.	.	.	.	.	.	.	.	.	.	.	8f/J)	.	.	.
=18	=18	=18	=18	=18	=18	=18	=18	=18	=18	=18	=18	=18	=18	=18	=18	=18	=18	=18	=18	=18	=18
4r	.	4B-/)	.	4GG-/)	.	2.r	.	4cc\	.	4B-\)	.	4ee-\)	.	2.r	.	2.r	.	(8g-/L	.	4B-/)	.
.	.	.	.	.	.	.	.	.	.	.	.	.	.	.	.	.	.	8f/	.	.	.
4r	.	4r	.	4r	.	.	.	4r	.	4r	.	4r	.	.	.	.	.	8g-/	.	4r	.
.	.	.	.	.	.	.	.	.	.	.	.	.	.	.	.	.	.	8a-/J)	.	.	.
4b-\	f	4r	.	4r	.	.	.	4r	.	4r	.	4r	.	.	.	.	.	4b-\	f	4r	.
=19	=19	=19	=19	=19	=19	=19	=19	=19	=19	=19	=19	=19	=19	=19	=19	=19	=19	=19	=19	=19	=19
! (32cc-P/LLL	!	!	!	!	!	!	!	!	!	! No "a 2" in Dover meas.19-27. An oversight? Other winds are doubled here.	!	!	!	!	!	!	!	! (32cc-P/LLL	!	!	!
! 32b-P/	!	!	!	!	!	!	!	!	!	!	!	!	!	!	!	!	!	! 32b-P/	!	!	!
! 32aP/JJJ	!	!	!	!	!	!	!	!	!	!	!	!	!	!	!	!	!	! 32aP/JJJ	!	!	!
*	*	*	*	*	*	*^	*	*	*	*	*	*	*	*	*	*	*	*	*	*	*
&(4b-p\)	.	4r	.	4r	.	[2.bb-\	[2.b-\	ff	2.r	.	4r	.	2.r	.	2.r	.	2.r	.	&(4b-p\)	.	4r	.
8bb-\&)	.	4r	.	4r	.	.	.	.	.	.	4r	.	.	.	.	.	.	.	8bb-\&)	.	4r	.
8r	.	.	.	.	.	.	.	.	.	.	.	.	.	.	.	.	.	.	8r	.	.	.
!	!	!	!	!	!	!	!	!	!	!	! (a 2)	!	!	!	!	!	!	!	!	!	!	!
4bb-'\	.	4e-\	f	4E-\	f	.	.	.	.	.	4E-\	f	.	.	.	.	.	.	4bb-'\	.	4g-/	f
=20	=20	=20	=20	=20	=20	=20	=20	=20	=20	=20	=20	=20	=20	=20	=20	=20	=20	=20	=20	=20	=20	=20
!	!	! (32fP/LLL	!	! (32FP/LLL	!	!	!	!	! a 2	!	!	!	!	!	!	!	!	!	!	!	! (32a-P/LLL	!
!	!	! 32e-P/	!	! 32E-P/	!	!	!	!	!	!	!	!	!	!	!	!	!	!	!	!	! 32g-P/	!
!	!	! 32dP/JJJ	!	! 32DP/JJJ	!	!	!	!	!	!	!	!	!	!	!	!	!	!	!	!	! 32fP/JJJ	!
(16bb-\LK	.	&(4e-p\)	.	&(4E-p\)	.	2.bb-\]	2.b-\]	.	2.a-/	.	2.E-\	.	2.r	.	2.r	.	2.r	.	(16bb-\LK	.	&(4g-p/)	.
8.cc-\J)	.	.	.	.	.	.	.	.	.	.	.	.	.	.	.	.	.	.	8.cc-\J)	.	.	.
8cc-'\	.	8ee-\&)	.	8e-\&)	.	.	.	.	.	.	.	.	.	.	.	.	.	.	8cc-'\	.	8gg-\&)	.
8r	.	8r	.	8r	.	.	.	.	.	.	.	.	.	.	.	.	.	.	8r	.	8r	.
4cc-\	.	4ee-\	.	4e-\	.	.	.	.	.	.	.	.	.	.	.	.	.	.	4cc-\	.	4gg-\	.
=21	=21	=21	=21	=21	=21	=21	=21	=21	=21	=21	=21	=21	=21	=21	=21	=21	=21	=21	=21	=21	=21	=21
! (32dd-P/LLL	!	!	!	!	!	!	!	!	!	!	!	!	!	!	!	!	!	!	! (32dd-P/LLL	!	!	!
! 32cc-P/	!	!	!	!	!	!	!	!	!	!	!	!	!	!	!	!	!	!	! 32cc-P/	!	!	!
! 32b-P/JJJ	!	!	!	!	!	!	!	!	!	!	!	!	!	!	!	!	!	!	! 32b-P/JJJ	!	!	!
&(4cc-p\)	.	(16ee-z\LKxx	z	(8.e-z\Lxx	z	[2.aa-z\xx	2.cc\	z	4b-\	.	2.F\	.	2.r	.	2.r	.	2.r	.	&(4cc-pz\)xx	z	(16gg-z\LK	z
.	.	8.f\J)	.	.	.	.	.	.	.	.	.	.	.	.	.	.	.	.	.	.	8.a-\J)	.
.	.	.	.	16F\Jk)	.	.	.	.	.	.	.	.	.	.	.	.	.	.	.	.	.	.
8aa-\&)	.	8f'\	.	8F'\	.	.	.	.	4r	.	.	.	.	.	.	.	.	.	8aa-\&)	.	8a-'/	.
8r	.	8r	.	8r	.	.	.	.	.	.	.	.	.	.	.	.	.	.	8r	.	8r	.
4aa-\	.	4f\	.	4F\	.	.	.	.	4r	.	.	.	.	.	.	.	.	.	4aa-\	.	4a-/	.
!	!	!	!	!	!	!	!	!	!	!	!	!	!	!	!	!	!	!	!    Z appears on the last Af5 in Dover but I feel it was misplaced.	!	!	!
=22	=22	=22	=22	=22	=22	=22	=22	=22	=22	=22	=22	=22	=22	=22	=22	=22	=22	=22	=22	=22	=22	=22
!	!	! (32gnP/LLL	!	! (32GnP/LLL	!	!	!	!	!	!	!	!	!	!	!	!	!	!	!	!	! (32b-P/LLL	!
!	!	! 32fP/	!	! 32FP/	!	!	!	!	!	!	!	!	!	!	!	!	!	!	!	!	! 32a-P/	!
!	!	! 32eP/JJJ	!	! 32EP/JJJ	!	!	!	!	!	!	!	!	!	!	!	!	!	!	!	!	! 32gnP/JJJ	!
*	*	*	*	*	*	*	*	*	*	*	*	*	*^	*	*^	*	*	*	*	*	*	*
(16aa-z\LK	z	&(4fp\)	.	&(4Fp\)	.	2.aa-z\]	[2.b-\	z	2.g/	.	2.Dn\	.	2.dd\xx	2.g\	f	2.dd\xx	2.g\	f	4BB/	f	(16aa-z\LK	z	&(4a-p/)	.
8.b-\J)	.	.	.	.	.	.	.	.	.	.	.	.	.	.	.	.	.	.	.	.	8.b-\J)	.	.	.
8b-'\xx	.	8ddn\&)	.	8dn\&)	.	.	.	.	.	.	.	.	.	.	.	.	.	.	8BB/L	.	8b-'\	.	8ff\&)	.
!    Dover doesn't have a dot on the 2nd Bf4 like m.20 & V.1. An oversight?	!	!	!	!	!	!	!	!	!	!	!	!	!	!	!	!	!	!	!	!	!	!	!	!
8r	.	8r	.	8r	.	.	.	.	.	.	.	.	.	.	.	.	.	.	8BB/	.	8r	.	8r	.
4b-\	.	4dd\	.	4d\	.	.	.	.	.	.	.	.	.	.	.	.	.	.	8BB/	.	4b-\	.	4ff\	.
.	.	.	.	.	.	.	.	.	.	.	.	.	.	.	.	.	.	.	8BB/J	.	.	.	.	.
=23	=23	=23	=23	=23	=23	=23	=23	=23	=23	=23	=23	=23	=23	=23	=23	=23	=23	=23	=23	=23	=23	=23	=23	=23
! (32cc-P/LLL	!	!	!	!	!	!	!	!	!	!	!	!	!	!	!	!	!	!	!	!	! (32cc-P/LLL	!	!	!
! 32b-P/	!	!	!	!	!	!	!	!	!	!	!	!	!	!	!	!	!	!	!	!	! 32b-P/	!	!	!
! 32aP/JJJ	!	!	!	!	!	!	!	!	!	!	!	!	!	!	!	!	!	!	!	!	! 32aP/JJJ	!	!	!
&(4b-p\)	.	(16ddz\LK	z	(16dz\LK	z	2.gg-z\xx	2.b-\]	z	4a-/	.	2.E-z\	z	2.ccz/	2.c/	z	2.ccz/	2.c/	z	4E\	.	&(4b-pz\)xx	z	(16ffz\LK	z
.	.	8.e-\J)	.	8.E-\J)	.	.	.	.	.	.	.	.	.	.	.	.	.	.	.	.	.	.	8.g-\J)	.
8gg-\&)	.	8e-'\	.	8E-'\	.	.	.	.	4r	.	.	.	.	.	.	.	.	.	4r	.	8gg-\&)	.	8g-'/	.
8r	.	8r	.	8r	.	.	.	.	.	.	.	.	.	.	.	.	.	.	.	.	8r	.	8r	.
4gg-\	.	4e-\	.	4E-\	.	.	.	.	4r	.	.	.	.	.	.	.	.	.	4r	.	4gg-\	.	4B-/	.
=24	=24	=24	=24	=24	=24	=24	=24	=24	=24	=24	=24	=24	=24	=24	=24	=24	=24	=24	=24	=24	=24	=24	=24	=24
*	*	*	*	*	*	*v	*v	*	*	*	*	*	*	*	*	*	*	*	*	*	*	*	*	*
(8aa-\L	.	(2.E-z/	z	(2.C-z/	z	(2.anz/ (2.e-/	z	2a-z/xx	z	(2.C-z/	z	(2.ccz/	(2.c/	z	(2.ccz/	(2.c/	z	4E\	.	(8aa-z\L	z	(2.Anz/	z
8gg-\)	.	.	.	.	.	.	.	.	.	.	.	.	.	.	.	.	.	.	.	8gg-\)	.	.	.
(8gg-\	.	.	.	.	.	.	.	.	.	.	.	.	.	.	.	.	.	4r	.	(8gg-\	.	.	.
8ff\)	.	.	.	.	.	.	.	.	.	.	.	.	.	.	.	.	.	.	.	8ff\)	.	.	.
(8ff\	.	.	.	.	.	.	.	4f/	.	.	.	.	.	.	.	.	.	4r	.	(8ff\	.	.	.
8ee-\J)	.	.	.	.	.	.	.	.	.	.	.	.	.	.	.	.	.	.	.	8ee-\J)	.	.	.
=25	=25	=25	=25	=25	=25	=25	=25	=25	=25	=25	=25	=25	=25	=25	=25	=25	=25	=25	=25	=25	=25	=25	=25
(8ee-\L	.	4F/)	.	4BB-/)	.	4b-/ 4d/)	.	4cc\	.	4BB-/)	.	4dd\)	4g\)	.	4dd\)	4g\)	.	4BB/	.	(8ee-\L	.	4B-/)	.
8dd\)	.	.	.	.	.	.	.	.	.	.	.	.	.	.	.	.	.	.	.	8dd\)	.	.	.
(8dd\	.	4r	.	4r	.	4r	.	4r	.	4r	.	4r	4r	.	4r	4r	.	4r	.	(8dd\	.	4r	.
8ccn\)	.	.	.	.	.	.	.	.	.	.	.	.	.	.	.	.	.	.	.	8ccn\)	.	.	.
(8cc\	.	4r	.	4r	.	4r	.	4r	.	4r	.	4r	4r	.	4r	4r	.	4r	.	(8cc\	.	4r	.
8b-\J)	.	.	.	.	.	.	.	.	.	.	.	.	.	.	.	.	.	.	.	8b-\J)	.	.	.
=26	=26	=26	=26	=26	=26	=26	=26	=26	=26	=26	=26	=26	=26	=26	=26	=26	=26	=26	=26	=26	=26	=26	=26
(8aa-z\L	z	(2.E-z/	z	(2.C-z/	z	(2.anz/ (2.e-/	z	2a-z/	z	(2.C-z/	z	(2.ccz/	(2.c/	z	(2.ccz/	(2.c/	z	4E\	.	(8aa-z\L	z	(2.Anz/	z
8gg-\)	.	.	.	.	.	.	.	.	.	.	.	.	.	.	.	.	.	.	.	8gg-\)	.	.	.
(8gg-\	.	.	.	.	.	.	.	.	.	.	.	.	.	.	.	.	.	4r	.	(8gg-\	.	.	.
8ff\)	.	.	.	.	.	.	.	.	.	.	.	.	.	.	.	.	.	.	.	8ff\)	.	.	.
(8ff\	.	.	.	.	.	.	.	4f/	.	.	.	.	.	.	.	.	.	4r	.	(8ff\	.	.	.
8ee-\J)	.	.	.	.	.	.	.	.	.	.	.	.	.	.	.	.	.	.	.	8ee-\J)	.	.	.
=27	=27	=27	=27	=27	=27	=27	=27	=27	=27	=27	=27	=27	=27	=27	=27	=27	=27	=27	=27	=27	=27	=27	=27
(8ee-\L	.	4F/)	.	4BB-/)	.	4b-/ 4d/)	.	4cc\	.	4BB-/)	.	4dd\)	4g\)	.	4dd\)	4g\)	.	4BB/	.	(8ee-\L	.	4B-/)	.
8dd\)	.	.	.	.	.	.	.	.	.	.	.	.	.	.	.	.	.	.	.	8dd\)	.	.	.
(8dd\	.	4r	.	4r	.	4r	.	4r	.	4r	.	4r	4r	.	4r	4r	.	4r	.	(8dd\	.	4r	.
8cc\)	.	.	.	.	.	.	.	.	.	.	.	.	.	.	.	.	.	.	.	8cc\)	.	.	.
(8cc\	.	4r	.	4r	.	4r	.	4r	.	4r	.	4r	4r	.	4r	4r	.	4r	.	(8cc\	.	4r	.
8b-\J)	.	.	.	.	.	.	.	.	.	.	.	.	.	.	.	.	.	.	.	8b-\J)	.	.	.
=28	=28	=28	=28	=28	=28	=28	=28	=28	=28	=28	=28	=28	=28	=28	=28	=28	=28	=28	=28	=28	=28	=28	=28
*	*	*	*	*	*	*^	*	*	*	*	*	*	*	*	*	*	*	*	*	*	*	*	*
*	*	*	*	*	*	*	*	*	*	*	*	*	*v	*v	*	*	*	*	*	*	*	*	*	*
*	*	*	*	*	*	*	*	*	*	*	*	*	*	*	*v	*v	*	*	*	*	*	*	*
2.r	.	2.r	.	2.r	.	2.r	2.r	.	2.r	.	2.r	.	2.r	.	2.r	.	2.r	.	(8aa-\L	pp	2.r	.
.	.	.	.	.	.	.	.	.	.	.	.	.	.	.	.	.	.	.	8gg-\)	.	.	.
.	.	.	.	.	.	.	.	.	.	.	.	.	.	.	.	.	.	.	(8gg-\	.	.	.
.	.	.	.	.	.	.	.	.	.	.	.	.	.	.	.	.	.	.	8ff\)	.	.	.
.	.	.	.	.	.	.	.	.	.	.	.	.	.	.	.	.	.	.	(8ff\	.	.	.
.	.	.	.	.	.	.	.	.	.	.	.	.	.	.	.	.	.	.	8ee-\J)	.	.	.
=29	=29	=29	=29	=29	=29	=29	=29	=29	=29	=29	=29	=29	=29	=29	=29	=29	=29	=29	=29	=29	=29	=29
2.r	.	2.r	.	2.r	.	2.r	2.r	.	2.r	.	2.r	.	2.r	.	2.r	.	2.r	.	(8gg-\L	.	2.r	.
.	.	.	.	.	.	.	.	.	.	.	.	.	.	.	.	.	.	.	8ff\)	.	.	.
.	.	.	.	.	.	.	.	.	.	.	.	.	.	.	.	.	.	.	(8ff\	.	.	.
.	.	.	.	.	.	.	.	.	.	.	.	.	.	.	.	.	.	.	8ee-\)	.	.	.
.	.	.	.	.	.	.	.	.	.	.	.	.	.	.	.	.	.	.	(8ee-\	.	.	.
.	.	.	.	.	.	.	.	.	.	.	.	.	.	.	.	.	.	.	8dd\J)	.	.	.
=30	=30	=30	=30	=30	=30	=30	=30	=30	=30	=30	=30	=30	=30	=30	=30	=30	=30	=30	=30	=30	=30	=30
2.r	.	2.r	.	2.r	.	2.r	2.r	.	2.r	.	2.r	.	2.r	.	2.r	.	2.r	.	(8ff\L	.	2.r	.
.	.	.	.	.	.	.	.	.	.	.	.	.	.	.	.	.	.	.	8ee-\)	.	.	.
.	.	.	.	.	.	.	.	.	.	.	.	.	.	.	.	.	.	.	(8ee-\	.	.	.
.	.	.	.	.	.	.	.	.	.	.	.	.	.	.	.	.	.	.	8dd\)	.	.	.
.	.	.	.	.	.	.	.	.	.	.	.	.	.	.	.	.	.	.	(8dd\	.	.	.
.	.	.	.	.	.	.	.	.	.	.	.	.	.	.	.	.	.	.	8cc\J)	.	.	.
=31	=31	=31	=31	=31	=31	=31	=31	=31	=31	=31	=31	=31	=31	=31	=31	=31	=31	=31	=31	=31	=31	=31
*	*	*	*	*	*	*	*	*	*	*	*	*	*^	*	*^	*	*	*	*	*	*	*
4r	.	2.r	.	2.r	.	4r	2ryy	.	4r	.	4r	.	4r	4r	.	2.r	2.r	.	2.r	.	(8ee-\L	.	4r	.
.	.	.	.	.	.	.	.	.	.	.	.	.	.	.	.	.	.	.	.	.	8dd\)	.	.	.
4r	.	.	.	.	.	4r	.	.	4r	.	4r	.	4r	4r	.	.	.	.	.	.	(8dd\	.	4r	.
.	.	.	.	.	.	.	.	.	.	.	.	.	.	.	.	.	.	.	.	.	8cc\J)	.	.	.
! a 2	!	!	!	!	!	!	!	!	!	!	! a 2	!	!	!	!	!	!	!	!	!	!	!	!	!
4bb-\	f	.	.	.	.	4b-/	4b-\	ff	4cc\ 4a\	f	4B-\	f	4cc/	4e/	f	.	.	.	.	.	(8cc\L	f	4e-/ 4G/	f
.	.	.	.	.	.	.	.	.	.	.	.	.	.	.	.	.	.	.	.	.	8b-\J)	.	.	.
=32	=32	=32	=32	=32	=32	=32	=32	=32	=32	=32	=32	=32	=32	=32	=32	=32	=32	=32	=32	=32	=32	=32	=32	=32
! (32cccP/LLL	!	!	!	!	!	!	!	!	!	!	! (32cP/LLL	!	!	!	!	!	!	!	!	!	! (32ccP/LLL	!	!	!
! 32bb-P/	!	!	!	!	!	!	!	!	!	!	! 32B-P/	!	!	!	!	!	!	!	!	!	! 32b-P/	!	!	!
! 32aaP/JJJ	!	!	!	!	!	!	!	!	!	!	! 32AP/JJJ	!	!	!	!	!	!	!	!	!	! 32aP/JJJ	!	!	!
*	*	*	*	*	*	*	*	*	*^	*	*	*	*	*	*	*	*	*	*	*	*	*	*	*
&(4bb-p\)	.	4e-/ 4G/	f	4E-\	f	4b-/	4gn/	.	4cc\	4a\	.	&(4B-p\)	.	4cc/	4e/	.	4cc/	4e/	f	4E\	f	&(4b-p\)	.	4e-/ 4G/	.
8eee-\&)	.	4r	.	4r	.	4r	4r	.	4r	4r	.	8e-\&)	.	4r	4r	.	4r	4r	.	4r	.	8ee-\&)	.	4r	.
8r	.	.	.	.	.	.	.	.	.	.	.	8r	.	.	.	.	.	.	.	.	.	8r	.	.	.
4eee-'\	.	4r	.	4r	.	4r	4r	.	4r	4r	.	4e-\	.	4r	4r	.	4r	4r	.	4r	.	4ee-'\	.	4r	.
=33	=33	=33	=33	=33	=33	=33	=33	=33	=33	=33	=33	=33	=33	=33	=33	=33	=33	=33	=33	=33	=33	=33	=33	=33	=33
(16eee-z\LK	z	4e-\ 4c\	.	4AA-/	.	4cc/	4f/	.	4dd\	4b-\	.	(16e-z\LK	z	4cc/	4c/	.	4cc/	4c/	.	4E\	.	(16ee-z/LK	z	4e-/ 4c/	.
8.ff\J)	.	.	.	.	.	.	.	.	.	.	.	8.F\J)	.	.	.	.	.	.	.	.	.	8.f/J)	.	.	.
8ff'\	.	4r	.	4r	.	4r	4r	.	4r	4r	.	8F\	.	4r	4r	.	4r	4r	.	4r	.	8f'/	.	4r	.
8r	.	.	.	.	.	.	.	.	.	.	.	8r	.	.	.	.	.	.	.	.	.	8r	.	.	.
4ff'\	.	4r	.	4r	.	4r	4r	.	4r	4r	.	4F\	.	4r	4r	.	4r	4r	.	4r	.	4f'/	.	4r	.
=34	=34	=34	=34	=34	=34	=34	=34	=34	=34	=34	=34	=34	=34	=34	=34	=34	=34	=34	=34	=34	=34	=34	=34	=34	=34
! (32ggP/LLL	!	!	!	!	!	!	!	!	!	!	!	! (32GP/LLL	!	!	!	!	!	!	!	!	!	! (32gP/LLL	!	!	!
! 32ffP/	!	!	!	!	!	!	!	!	!	!	!	! 32FP/	!	!	!	!	!	!	!	!	!	! 32fP/	!	!	!
! 32eeP/JJJ	!	!	!	!	!	!	!	!	!	!	!	! 32EP/JJJ	!	!	!	!	!	!	!	!	!	! 32eP/JJJ	!	!	!
&(4ffp\)	.	4A-/ 4F/	.	4BB-/	.	4dd/	4f/	.	4ee\	4b-\	.	&(4Fp\)	.	4dd\	4g\	.	4dd\	4g\	.	4BB/	.	&(4fp/)	.	4d/ 4A-/	.
8bb-\&)	.	4r	.	4r	.	4r	4r	.	4r	4r	.	8B-\&)	.	4r	4r	.	4r	4r	.	4r	.	8b-\&)	.	4r	.
8r	.	.	.	.	.	.	.	.	.	.	.	8r	.	.	.	.	.	.	.	.	.	8r	.	.	.
4bb-'\	.	4r	.	4r	.	4r	4r	.	4r	4r	.	4B-\	.	4r	4r	.	4r	4r	.	4r	.	4b-'\	.	4r	.
=35	=35	=35	=35	=35	=35	=35	=35	=35	=35	=35	=35	=35	=35	=35	=35	=35	=35	=35	=35	=35	=35	=35	=35	=35	=35
(16bb-z\LK	z	4G/ 4E-/	.	4E-\	.	4ee-\	4g\	.	4ff\	4a\	.	(16B-z\LK	z	4ee\	4cc\	.	4ee\	4cc\	.	4E\	.	(16b-z/LK	z	4e-/ 4G/	.
8.ee-\J)	.	.	.	.	.	.	.	.	.	.	.	8.E-\J)	.	.	.	.	.	.	.	.	.	8.e-/J)	.	.	.
8ee-'\	.	4r	.	4r	.	4r	4r	.	4r	4r	.	8E-\	.	4r	4r	.	4r	4r	.	4r	.	8e-'/	.	4r	.
8r	.	.	.	.	.	.	.	.	.	.	.	8r	.	.	.	.	.	.	.	.	.	8r	.	.	.
4gg\	.	4e-\	.	4e-\	.	4gg\	4b-\	.	4aa\	4ff\	.	4e-\	.	4ee\	4cc\	.	4ee\	4cc\	.	4E\	.	4gg\	.	4gg\ 4b-\	.
=36	=36	=36	=36	=36	=36	=36	=36	=36	=36	=36	=36	=36	=36	=36	=36	=36	=36	=36	=36	=36	=36	=36	=36	=36	=36
! (16ffP/LL	!	!	!	!	!	!	!	!	!	!	!	!	!	!	!	!	!	!	!	!	!	! (16ffP/LL	!	!	!
! 16ggP/JJ	!	!	!	!	!	!	!	!	!	!	!	!	!	!	!	!	!	!	!	!	!	! 16ggP/JJ	!	!	!
2aa-pz\)	z	2dz\	z	2dz\	z	2aa-z/	2.b-\	z	2bb-z\	2gg\	z	2dz\	z	2ddz\	2g\	z	2ddz\	2g\	z	4BBz/	z	2aa-pz\)	z	2ffz\ 2b-\	z
.	.	.	.	.	.	.	.	.	.	.	.	.	.	.	.	.	.	.	.	8BB/L	.	.	.	.	.
.	.	.	.	.	.	.	.	.	.	.	.	.	.	.	.	.	.	.	.	8BB/J	.	.	.	.	.
4gg\	.	4e-\	.	4e-\	.	4gg/	.	.	4aa\	4ff\	.	4e-\	.	4ee\	4cc\	.	4ee\	4cc\	.	4E\	.	4gg\	.	4gg\ 4b-\	.
=37	=37	=37	=37	=37	=37	=37	=37	=37	=37	=37	=37	=37	=37	=37	=37	=37	=37	=37	=37	=37	=37	=37	=37	=37	=37
(16ff\LL	.	2.f\	.	2.A-\	.	2.ff\	2.dd\	.	8gg/	8gg\	.	2.A-\	.	2.dd\	2.g\	.	4ff\	4dd\	.	4r	.	(16ff\LL	.	2.dd/ 2.f/	.
16aa-\JJ)	.	.	.	.	.	.	.	.	.	.	.	.	.	.	.	.	.	.	.	.	.	16aa-\JJ)	.	.	.
8r	.	.	.	.	.	.	.	.	8r	8ryy	.	.	.	.	.	.	.	.	.	.	.	8r	.	.	.
(16aa-\LL	.	.	.	.	.	.	.	.	8bb-/	8bb-\	.	.	.	.	.	.	4r	4r	.	4r	.	(16aa-\LL	.	.	.
16ccc\JJ)	.	.	.	.	.	.	.	.	.	.	.	.	.	.	.	.	.	.	.	.	.	16ccc\JJ)	.	.	.
8r	.	.	.	.	.	.	.	.	8r	8ryy	.	.	.	.	.	.	.	.	.	.	.	8r	.	.	.
(16dd\LL	.	.	.	.	.	.	.	.	8ee/	8b-\	.	.	.	.	.	.	4dd'\	4g\	.	4BB/	.	(16dd\LL	.	.	.
16ff\JJ)	.	.	.	.	.	.	.	.	.	.	.	.	.	.	.	.	.	.	.	.	.	16ff\JJ)	.	.	.
8r	.	.	.	.	.	.	.	.	8r	8ryy	.	.	.	.	.	.	.	.	.	.	.	8r	.	.	.
=38	=38	=38	=38	=38	=38	=38	=38	=38	=38	=38	=38	=38	=38	=38	=38	=38	=38	=38	=38	=38	=38	=38	=38	=38	=38
(16ee-\LL	.	8g\	.	8G\	.	8gg\	8ee-\	.	8ff\	8a\	.	8G\	.	4ee'\	4cc\	.	4ee'\	4cc\	.	4E\	.	(16ee-\LL	.	8ee-/ 8e-/	.
16gg\JJ)	.	.	.	.	.	.	.	.	.	.	.	.	.	.	.	.	.	.	.	.	.	16gg\JJ)	.	.	.
8r	.	8r	.	8r	.	8r	8r	.	8r	8ryy	.	8r	.	.	.	.	.	.	.	.	.	8r	.	8r	.
(16ff\LL	.	8A-/	.	8AA-/	.	8aa-\	8ff\	.	8gg\	8dd\	.	8AA-/	.	4ff'\	4dd\	.	4ff'\	4dd\	.	4r	.	(16ff\LL	.	8ff\	.
16aa-\JJ)	.	.	.	.	.	.	.	.	.	.	.	.	.	.	.	.	.	.	.	.	.	16aa-\JJ)	.	.	.
8r	.	8r	.	8r	.	8r	8r	.	8r	8ryy	.	8r	.	.	.	.	.	.	.	.	.	8r	.	8r	.
(16dd\LL	.	8B-/	.	8BB-/	.	8ff\	8dd\	.	8ee\	8b-\	.	8BB-/	.	4dd'\	4g\	.	4dd'\	4g\	.	4BB/	.	(16dd\LL	.	8dd/ 8f/	.
16ff\JJ)	.	.	.	.	.	.	.	.	.	.	.	.	.	.	.	.	.	.	.	.	.	16ff\JJ)	.	.	.
8r	.	8r	.	8r	.	8r	8r	.	8r	8ryy	.	8r	.	.	.	.	.	.	.	.	.	8r	.	8r	.
=39	=39	=39	=39	=39	=39	=39	=39	=39	=39	=39	=39	=39	=39	=39	=39	=39	=39	=39	=39	=39	=39	=39	=39	=39	=39
*	*	*	*	*	*	*	*	*	*	*	*	*	*	*v	*v	*	*	*	*	*	*	*	*	*	*
*	*	*	*	*	*	*	*	*	*	*	*	*	*	*	*	*v	*v	*	*	*	*	*	*	*
(8ee-\L	.	4c\	.	(8C\L	.	4ee-/	4ee-\	.	8ff/L	8a\L	.	(8C\L	.	4cc\	.	4cc\	.	4E\	.	(8ee-\L	.	(8ee-/ 8e-/L	.
8eee-\J)	.	.	.	8c\J)	.	.	.	.	8bn/J	8bn\J	.	8c\J)	.	.	.	.	.	.	.	8eee-\J)	.	8an/J)	.
4eee-'\	.	4c\	.	4c'\	.	2ryy	4aan\ 4ee-\	.	4b/	4b\	.	4c'\	.	4cc\	.	4cc\	.	8E\L	.	4eee-'\	.	4a'/	.
.	.	.	.	.	.	.	.	.	.	.	.	.	.	.	.	.	.	8E\	.	.	.	.	.
4eee-'\	.	4c\	.	4c'\	.	.	4aa\ 4ee-\	.	4b/	4b\	.	4c'\	.	4cc\	.	4cc\	.	8E\	.	4eee-'\	.	4a'/	.
.	.	.	.	.	.	.	.	.	.	.	.	.	.	.	.	.	.	8E\J	.	.	.	.	.
=40	=40	=40	=40	=40	=40	=40	=40	=40	=40	=40	=40	=40	=40	=40	=40	=40	=40	=40	=40	=40	=40	=40	=40
*	*	*	*	*	*	*v	*v	*	*	*	*	*	*	*	*	*	*	*	*	*	*	*	*
4eee-\	.	4c\	.	4c\	.	4aan\ 4ee-\	.	4bn/	4bn\	.	4c\	.	4cc\	.	4cc\	.	4E\	.	4eee-\	.	4an/	.
4r	.	4r	.	4r	.	4r	.	2ryy	4r	.	4r	.	4r	.	4r	.	4r	.	4r	.	4r	.
4r	.	4r	.	4r	.	4r	.	.	4r	.	4r	.	4r	.	4r	.	4r	.	4r	.	4r	.
=41	=41	=41	=41	=41	=41	=41	=41	=41	=41	=41	=41	=41	=41	=41	=41	=41	=41	=41	=41	=41	=41	=41
*	*	*	*	*	*	*	*	*v	*v	*	*	*	*^	*	*^	*	*	*	*	*	*	*
!	!	!	!	!	!	!	!	! Notes written as sounded in Dover m.41-42. Entered them a whole step higher.	!	!	!	!	!	!	!	!	!	!	!	!	!	!	!
!	!	!	!	!	!	!	!	!	!	!	!	!	!	!	!	!	!	!	!	!	!	!	!
(8dd\L	p	4a-\	p	(4c-'\	p	4aa-\ 4ff\	p	4gg\ 4ee\	p	(4c-'\	p	2.r	2.r	.	2.r	2.r	.	2.r	.	(8dd\L	p	4ff\	p
8ddd\J)	.	.	.	.	.	.	.	.	.	.	.	.	.	.	.	.	.	.	.	8ddd\J)	.	.	.
4ddd'\	.	4a-\	.	4c-'\	.	4aa-\ 4ff\	.	4gg\ 4ee\	.	4c-'\	.	.	.	.	.	.	.	.	.	4ddd'\	.	4ff\	.
4ddd'\	.	4a-\	.	4c-'\)	.	4aa-\ 4ff\	.	4gg\ 4ee\	.	4c-'\)	.	.	.	.	.	.	.	.	.	4ddd'\	.	4ff\	.
=42	=42	=42	=42	=42	=42	=42	=42	=42	=42	=42	=42	=42	=42	=42	=42	=42	=42	=42	=42	=42	=42	=42	=42
*	*	*	*	*	*	*^	*	*	*	*	*	*	*	*	*	*	*	*	*	*	*	*	*
4ddd\	.	4a-\	.	4c-\	.	4aa-\	4ff\	.	4gg\ 4ee\	.	4c-\	.	2.r	2.r	.	2.r	2.r	.	2.r	.	4ddd\	.	4ff\	.
4r	.	4r	.	4r	.	4r	4r	.	4r	.	4r	.	.	.	.	.	.	.	.	.	4r	.	4r	.
4r	.	4r	.	4r	.	4r	4r	.	4r	.	4r	.	.	.	.	.	.	.	.	.	4r	.	4r	.
=43	=43	=43	=43	=43	=43	=43	=43	=43	=43	=43	=43	=43	=43	=43	=43	=43	=43	=43	=43	=43	=43	=43	=43	=43
*	*	*	*	*	*	*	*	*	*^	*	*	*	*	*	*	*	*	*	*	*	*	*	*	*
(8ee-\L	f	4B-'/	f	4B-'\	f	[2.gg\	[2.ee-\	f	[2.ff\	[2.a\	f	[2.B-\	f	[2.gg\	[2.ee\	f	[2.ee\	[2.cc\	f	4BB/	f	(8ee-\L	f	4ee-'\ 4g\	f
8eee-\J)	.	.	.	.	.	.	.	.	.	.	.	.	.	.	.	.	.	.	.	.	.	8eee-\J)	.	.	.
4eee-'\	.	4B-'/	.	4B-'\	.	.	.	.	.	.	.	.	.	.	.	.	.	.	.	4r	.	4eee-'\	.	4ee-'\ 4g\	.
4eee-'\	.	4B-'/	.	4B-'\	.	.	.	.	.	.	.	.	.	.	.	.	.	.	.	4r	.	4eee-'\	.	4ee-'\ 4g\	.
=44	=44	=44	=44	=44	=44	=44	=44	=44	=44	=44	=44	=44	=44	=44	=44	=44	=44	=44	=44	=44	=44	=44	=44	=44	=44
(16eee-\LL	.	4B-/	.	4B-\	.	2.gg\_	2.ee-\_	.	2.ff\_	2.a\_	.	2.B-\_	.	2.gg\_	2.ee\_	.	2.ee\_	2.cc\_	.	4BB/	.	(16eee-\LL	.	(16ee-\LL	.
16bb-\JJ)	.	.	.	.	.	.	.	.	.	.	.	.	.	.	.	.	.	.	.	.	.	16bb-\JJ)	.	16b-\JJ)	.
8r	.	.	.	.	.	.	.	.	.	.	.	.	.	.	.	.	.	.	.	.	.	8r	.	8r	.
(16bb-\LL	.	4r	.	4r	.	.	.	.	.	.	.	.	.	.	.	.	.	.	.	4r	.	(16bb-\LL	.	(16b-/LL	.
16gg\JJ)	.	.	.	.	.	.	.	.	.	.	.	.	.	.	.	.	.	.	.	.	.	16gg\JJ)	.	16g/JJ)	.
8r	.	.	.	.	.	.	.	.	.	.	.	.	.	.	.	.	.	.	.	.	.	8r	.	8r	.
(16gg\LL	.	4r	.	4r	.	.	.	.	.	.	.	.	.	.	.	.	.	.	.	4r	.	(16gg\LL	.	(16g/LL	.
16ee-\JJ)	.	.	.	.	.	.	.	.	.	.	.	.	.	.	.	.	.	.	.	.	.	16ee-\JJ)	.	16e-/JJ)	.
8r	.	.	.	.	.	.	.	.	.	.	.	.	.	.	.	.	.	.	.	.	.	8r	.	8r	.
=45	=45	=45	=45	=45	=45	=45	=45	=45	=45	=45	=45	=45	=45	=45	=45	=45	=45	=45	=45	=45	=45	=45	=45	=45	=45
(16eee-\LL	.	4e-/ 4G/	.	4B-\	.	2.gg\_	2.ee-\_	.	2.ff\_	2.a\_	.	2.B-\_	.	2.gg\_	2.ee\_	.	2.ee\_	2.cc\_	.	4BB/	.	(16eee-\LL	.	(16ee-\LL	.
16bb-\JJ)	.	.	.	.	.	.	.	.	.	.	.	.	.	.	.	.	.	.	.	.	.	16bb-\JJ)	.	16b-\JJ)	.
8r	.	.	.	.	.	.	.	.	.	.	.	.	.	.	.	.	.	.	.	.	.	8r	.	8r	.
(16bb-\LL	.	4r	.	4r	.	.	.	.	.	.	.	.	.	.	.	.	.	.	.	4r	.	(16bb-\LL	.	(16b-/LL	.
16gg\JJ)	.	.	.	.	.	.	.	.	.	.	.	.	.	.	.	.	.	.	.	.	.	16gg\JJ)	.	16g/JJ)	.
8r	.	.	.	.	.	.	.	.	.	.	.	.	.	.	.	.	.	.	.	.	.	8r	.	8r	.
(16gg\LL	.	4r	.	4r	.	.	.	.	.	.	.	.	.	.	.	.	.	.	.	4r	.	(16gg\LL	.	(16g/LL	.
16ee-\JJ)	.	.	.	.	.	.	.	.	.	.	.	.	.	.	.	.	.	.	.	.	.	16ee-\JJ)	.	16e-/JJ)	.
8r	.	.	.	.	.	.	.	.	.	.	.	.	.	.	.	.	.	.	.	.	.	8r	.	8r	.
=46	=46	=46	=46	=46	=46	=46	=46	=46	=46	=46	=46	=46	=46	=46	=46	=46	=46	=46	=46	=46	=46	=46	=46	=46	=46
(16eee-\LL	.	4e-/ 4G/	.	4B-\	.	2gg\]	2ee-\]	.	2ff\]	2a\]	.	2.B-\]	.	2.gg\]	2.ee\]	.	2ee\]	2cc\]	.	8BB/L	.	(16eee-\LL	.	(16ee-\LL	.
16bb-\JJ)	.	.	.	.	.	.	.	.	.	.	.	.	.	.	.	.	.	.	.	.	.	16bb-\JJ)	.	16b-\JJ)	.
8r	.	.	.	.	.	.	.	.	.	.	.	.	.	.	.	.	.	.	.	8BB/	.	8r	.	8r	.
(16bb-\LL	.	4r	.	4r	.	.	.	.	.	.	.	.	.	.	.	.	.	.	.	8BB/	.	(16bb-\LL	.	(16b-/LL	.
16gg\JJ)	.	.	.	.	.	.	.	.	.	.	.	.	.	.	.	.	.	.	.	.	.	16gg\JJ)	.	16g/JJ)	.
8r	.	.	.	.	.	.	.	.	.	.	.	.	.	.	.	.	.	.	.	8BB/	.	8r	.	8r	.
(16bb-\LL	.	4r	.	4r	.	4bb-\	4gg\	.	4aa\	4ff\	.	.	.	.	.	.	4gg\	4ee\	.	8BB/	.	(16bb-\LL	.	(16b-/LL	.
16gg\JJ)	.	.	.	.	.	.	.	.	.	.	.	.	.	.	.	.	.	.	.	.	.	16gg\JJ)	.	16g/JJ)	.
8r	.	.	.	.	.	.	.	.	.	.	.	.	.	.	.	.	.	.	.	8BB/J	.	8r	.	8r	.
=47	=47	=47	=47	=47	=47	=47	=47	=47	=47	=47	=47	=47	=47	=47	=47	=47	=47	=47	=47	=47	=47	=47	=47	=47	=47
(16aa-\LL	.	4r	.	4r	.	4aa-\	4ff\	.	4bb-\	4gg\	.	4B-\	.	4ff\	4dd\	.	4ff\	4dd\	.	4BB/	.	(16aa-\LL	.	(16a-/LL	.
16ff\JJ)	.	.	.	.	.	.	.	.	.	.	.	.	.	.	.	.	.	.	.	.	.	16ff\JJ)	.	16f/JJ)	.
8r	.	.	.	.	.	.	.	.	.	.	.	.	.	.	.	.	.	.	.	.	.	8r	.	8r	.
(16gg\LL	.	4r	.	4r	.	4gg\	4ee-\	.	4aa\	4ff\	.	4r	.	4ee\	4cc\	.	4ee\	4cc\	.	4r	.	(16gg\LL	.	(16g/LL	.
16ee-\JJ)	.	.	.	.	.	.	.	.	.	.	.	.	.	.	.	.	.	.	.	.	.	16ee-\JJ)	.	16e-/JJ)	.
8r	.	.	.	.	.	.	.	.	.	.	.	.	.	.	.	.	.	.	.	.	.	8r	.	8r	.
(16ff\LL	.	4B-/	.	4B-\	.	4ff\	4dd\	.	4gg\	4ee\	.	4BB-/	.	4dd\	4g/	.	4dd\	4g\	.	4BB/	.	(16ff\LL	.	(16f/LL	.
16b-\JJ)	.	.	.	.	.	.	.	.	.	.	.	.	.	.	.	.	.	.	.	.	.	16b-\JJ)	.	16B-/JJ)	.
8r	.	.	.	.	.	.	.	.	.	.	.	.	.	.	.	.	.	.	.	.	.	8r	.	8r	.
=48	=48	=48	=48	=48	=48	=48	=48	=48	=48	=48	=48	=48	=48	=48	=48	=48	=48	=48	=48	=48	=48	=48	=48	=48	=48
(16ee-/LL	.	4E-/	.	4E-\	.	4ee-\	4ee-\	.	4ff/	4ff\	.	4E-\	.	4cc/	4e/	.	4cc/	4e/	.	4E\	.	(16ee-/LL	.	(16e-/LL	.
16e-/JJ)	.	.	.	.	.	.	.	.	.	.	.	.	.	.	.	.	.	.	.	.	.	16e-/JJ)	.	16G/JJ)	.
8r	.	.	.	.	.	.	.	.	.	.	.	.	.	.	.	.	.	.	.	.	.	8r	.	8r	.
4r	.	4r	.	4r	.	4r	4r	.	2ryy	4r	.	4r	.	4r	4r	.	4r	4r	.	4r	.	4r	.	4r	.
=:!!:	=:!!:	=:!!:	=:!!:	=:!!:	=:!!:	=:!!:	=:!!:	=:!!:	=:!!:	=:!!:	=:!!:	=:!!:	=:!!:	=:!!:	=:!!:	=:!!:	=:!!:	=:!!:	=:!!:	=:!!:	=:!!:	=:!!:	=:!!:	=:!!:	=:!!:
*>C	*	*>C	*	*>C	*	*	*	*	*	*	*	*>C	*	*	*	*	*	*	*	*>C	*	*>C	*	*>C	*
*k[b-e-a-]	*	*k[b-e-a-]	*	*k[b-e-a-]	*	*	*	*	*	*	*	*k[b-e-a-]	*	*	*	*	*	*	*	*M3/4	*	*k[b-e-a-]	*	*k[b-e-a-]	*
*E-:	*	*E-:	*	*E-:	*	*	*	*	*	*	*	*E-:	*	*	*	*	*	*	*	*	*	*E-:	*	*E-:	*
*M3/4	*	*M3/4	*	*M3/4	*	*	*	*	*	*	*	*M3/4	*	*	*	*	*	*	*	*	*	*M3/4	*	*M3/4	*
! Trio	!	! Trio	!	! Trio	!	!	!	!	!	!	!	! Trio	!	!	!	!	!	!	!	! Trio	!	! Trio	!	! Trio	!
*	*	*	*	*	*	*v	*v	*	*	*	*	*	*	*	*	*	*	*	*	*	*	*	*	*	*
*	*	*	*	*	*	*>C	*	*	*	*	*	*	*	*	*	*	*	*	*	*	*	*	*	*
*	*	*	*	*	*	*k[b-e-a-]	*	*	*	*	*	*	*	*	*	*	*	*	*	*	*	*	*	*
*	*	*	*	*	*	*E-/c:	*	*	*	*	*	*	*	*	*	*	*	*	*	*	*	*	*	*
*	*	*	*	*	*	*M3/4	*	*	*	*	*	*	*	*	*	*	*	*	*	*	*	*	*	*
!	!	!	!	!	!	! Trio	!	!	!	!	!	!	!	!	!	!	!	!	!	!	!	!	!	!
!	!	!	!	!	!	!	!	!	!	!	!	!	!	!	!	!	!	!	!	!	!	!	!	!
*	*	*	*	*	*	*	*	*v	*v	*	*	*	*	*	*	*	*	*	*	*	*	*	*	*
*	*	*	*	*	*	*	*	*>C	*	*	*	*	*	*	*	*	*	*	*	*	*	*	*
*	*	*	*	*	*	*	*	*M3/4	*	*	*	*	*	*	*	*	*	*	*	*	*	*	*
!	!	!	!	!	!	!	!	! Trio	!	!	!	!	!	!	!	!	!	!	!	!	!	!	!
!	!	!	!	!	!	!	!	! I	!	!	!	!	!	!	!	!	!	!	!	!	!	!	!
!	!	!	!	!	!	!	!	!	!	!	!	!	!	!	!	!	!	!	!	!	!	!	!
!	!	!	!	!	!	!	!	!	!	!	!	!	!	!	!	!	!	!	!	!	!	!	!
*	*	*	*	*	*	*	*	*	*	*	*	*v	*v	*	*	*	*	*	*	*	*	*	*
*	*	*	*	*	*	*	*	*	*	*	*	*>C	*	*	*	*	*	*	*	*	*	*
*	*	*	*	*	*	*	*	*	*	*	*	*k[]	*	*	*	*	*	*	*	*	*	*
*	*	*	*	*	*	*	*	*	*	*	*	*C/a:	*	*	*	*	*	*	*	*	*	*
*	*	*	*	*	*	*	*	*	*	*	*	*M3/4	*	*	*	*	*	*	*	*	*	*
!	!	!	!	!	!	!	!	!	!	!	!	! Trio	!	!	!	!	!	!	!	!	!	!
!	!	!	!	!	!	!	!	!	!	!	!	!	!	!	!	!	!	!	!	!	!	!
*	*	*	*	*	*	*	*	*	*	*	*	*	*	*v	*v	*	*	*	*	*	*	*
*	*	*	*	*	*	*	*	*	*	*	*	*	*	*>C	*	*	*	*	*	*	*
*	*	*	*	*	*	*	*	*	*	*	*	*	*	*k[]	*	*	*	*	*	*	*
*	*	*	*	*	*	*	*	*	*	*	*	*	*	*C/a:	*	*	*	*	*	*	*
*	*	*	*	*	*	*	*	*	*	*	*	*	*	*M3/4	*	*	*	*	*	*	*
!	!	!	!	!	!	!	!	!	!	!	!	!	!	! Trio	!	!	!	!	!	!	!
!	!	!	!	!	!	!	!	!	!	!	!	!	!	!	!	!	!	!	!	!	!
4r	.	4r	.	4r	.	4r	.	8cc\Lxx	p	4r	.	4r	.	4r	.	4r	.	(8b-\L	p	4r	.
.	.	.	.	.	.	.	.	8ff\J	.	.	.	.	.	.	.	.	.	8ee-\J)	.	.	.
2ryy	.	2ryy	.	2ryy	.	2ryy	.	2ryy	.	2ryy	.	2ryy	.	2ryy	.	2ryy	.	2ryy	.	2ryy	.
=49	=49	=49	=49	=49	=49	=49	=49	=49	=49	=49	=49	=49	=49	=49	=49	=49	=49	=49	=49	=49	=49
*	*	*	*	*	*	*^	*	*	*	*	*	*^	*	*^	*	*	*	*	*	*	*
2.r	.	2.r	.	2.r	.	2.r	2.r	.	8cc/L	.	2.r	.	2.r	2.r	.	2.r	2.r	.	2.r	.	(8b-/L	.	2.r	.
.	.	.	.	.	.	.	.	.	8a/	.	.	.	.	.	.	.	.	.	.	.	8g/)	.	.	.
.	.	.	.	.	.	.	.	.	8dd/	.	.	.	.	.	.	.	.	.	.	.	(8cc/	.	.	.
.	.	.	.	.	.	.	.	.	8b-/	.	.	.	.	.	.	.	.	.	.	.	8a-/	.	.	.
.	.	.	.	.	.	.	.	.	8g/	.	.	.	.	.	.	.	.	.	.	.	8f/	.	.	.
.	.	.	.	.	.	.	.	.	8e/J	.	.	.	.	.	.	.	.	.	.	.	8d/J)	.	.	.
=50	=50	=50	=50	=50	=50	=50	=50	=50	=50	=50	=50	=50	=50	=50	=50	=50	=50	=50	=50	=50	=50	=50	=50	=50
2.r	.	2.r	.	2.r	.	2.r	2.r	.	8f\L	.	2.r	.	2.r	2.r	.	2.r	2.r	.	2.r	.	(8e-\L	.	2.r	.
.	.	.	.	.	.	.	.	.	8a\	.	.	.	.	.	.	.	.	.	.	.	8g\	.	.	.
.	.	.	.	.	.	.	.	.	8cc\	.	.	.	.	.	.	.	.	.	.	.	8b-\	.	.	.
.	.	.	.	.	.	.	.	.	8ff\	.	.	.	.	.	.	.	.	.	.	.	8ee-\)	.	.	.
.	.	.	.	.	.	.	.	.	8aa\	.	.	.	.	.	.	.	.	.	.	.	(8gg\	.	.	.
.	.	.	.	.	.	.	.	.	8ff\J	.	.	.	.	.	.	.	.	.	.	.	8ee-\J)	.	.	.
=51	=51	=51	=51	=51	=51	=51	=51	=51	=51	=51	=51	=51	=51	=51	=51	=51	=51	=51	=51	=51	=51	=51	=51	=51
*	*	*	*	*	*	*	*	*	*^	*	*	*	*	*	*	*	*	*	*	*	*	*	*	*
!	!	!	!	!	!	!	!	!	! Meas.49-56 & 73-80 are on separate staffs for Cl.1 & 2 in Dover.	!	!	!	!	!	!	!	!	!	!	!	!	!	!	!	!
!	!	!	!	!	!	!	!	!	! In this file they are incorporated into one staff.	!	!	!	!	!	!	!	!	!	!	!	!	!	!	!	!
!	!	!	!	!	!	!	!	!	!	!	!	!	!	!	!	!	!	!	!	!	!	!	!	!	!
!	!	!	!	!	!	!	!	!	!	!	!	!	!	!	!	!	!	!	!	!	!	!	!	!	!
2.r	.	2.r	.	2.r	.	2.r	2.r	.	4ee/	8c\L	.	2.r	.	2.r	2.r	.	2.r	2.r	.	2.r	.	4dd\	.	(8B-/L	p
.	.	.	.	.	.	.	.	.	.	8e\	.	.	.	.	.	.	.	.	.	.	.	.	.	8d/	.
.	.	.	.	.	.	.	.	.	4r	8g\	.	.	.	.	.	.	.	.	.	.	.	4r	.	8f/	.
.	.	.	.	.	.	.	.	.	.	8b-\	.	.	.	.	.	.	.	.	.	.	.	.	.	8a-/)	.
.	.	.	.	.	.	.	.	.	8bb-/L	8dd\	.	.	.	.	.	.	.	.	.	.	.	(8aa-\L	.	(8cc/	.
.	.	.	.	.	.	.	.	.	8gg/J	8b-\J	.	.	.	.	.	.	.	.	.	.	.	8ff\J)	.	8a-/J)	.
=52	=52	=52	=52	=52	=52	=52	=52	=52	=52	=52	=52	=52	=52	=52	=52	=52	=52	=52	=52	=52	=52	=52	=52	=52	=52
!	!	!	!	!	!	!	!	!	!	!	!	! I	!	!	!	!	!	!	!	!	!	!	!	!	!
2.r	.	(8G\L	p	2.r	.	2.r	2.r	.	4ff/	4a\	.	(8G\Lxx	p	2.r	2.r	.	2.r	2.r	.	2.r	.	4ee-\	.	4g/	.
.	.	8B-\	.	.	.	.	.	.	.	.	.	8B-\	.	.	.	.	.	.	.	.	.	.	.	.	.
.	.	8d\	.	.	.	.	.	.	4r	4r	.	8d\	.	.	.	.	.	.	.	.	.	4r	.	4r	.
.	.	8e-\	.	.	.	.	.	.	.	.	.	8e-\	.	.	.	.	.	.	.	.	.	.	.	.	.
.	.	8g\	.	.	.	.	.	.	8ccc/L	4r	.	8g\	.	.	.	.	.	.	.	.	.	(8bb-\L	.	(8e-/L	.
.	.	8e-\J)	.	.	.	.	.	.	8aa/J	.	.	8e-\J)	.	.	.	.	.	.	.	.	.	8gg\J)	.	8ee-/J)	.
=53	=53	=53	=53	=53	=53	=53	=53	=53	=53	=53	=53	=53	=53	=53	=53	=53	=53	=53	=53	=53	=53	=53	=53	=53	=53
*	*	*	*	*^	*	*	*	*	*	*	*	*	*	*	*	*	*	*	*	*	*	*	*	*	*
!	!	!	!	! Vc.	!	!	!	!	!	!	!	!	!	!	!	!	!	!	!	!	!	!	!	!	!	!
!	!	!	!	!	!	!	!	!	!	!	!	!	!	!	!	!	!	!	!	!	!	!	!	!	!	!
2.r	.	4a-\	.	(8AA-/L	2.r	p	2.r	2.r	.	2ddd/	2.r	.	4c\	.	2.r	2.r	.	2.r	2.r	.	2.r	.	(2ccc\	.	4ee-\	.
.	.	.	.	8C/	.	.	.	.	.	.	.	.	.	.	.	.	.	.	.	.	.	.	.	.	.	.
.	.	4r	.	8F/	.	.	.	.	.	.	.	.	4r	.	.	.	.	.	.	.	.	.	.	.	4r	.
.	.	.	.	8A-/)	.	.	.	.	.	.	.	.	.	.	.	.	.	.	.	.	.	.	.	.	.	.
.	.	4r	.	8c'/	.	.	.	.	.	8bb-/L	.	.	4r	.	.	.	.	.	.	.	.	.	8aa-\L	.	(8e-/L	.
.	.	.	.	8A-'/J	.	.	.	.	.	8gg/J	.	.	.	.	.	.	.	.	.	.	.	.	8ff\J)	.	8f/J)	.
=54	=54	=54	=54	=54	=54	=54	=54	=54	=54	=54	=54	=54	=54	=54	=54	=54	=54	=54	=54	=54	=54	=54	=54	=54	=54	=54
!	!	!	!	!	! pizz.	!	!	!	!	!	!	!	!	!	!	!	!	!	!	!	!	!	!	!	!	!
!	!	!	!	!	! Basso	!	!	!	!	!	!	!	!	!	!	!	!	!	!	!	!	!	!	!	!	!
2.r	.	4g\	.	4B-/	4BB-"\	p	2.r	2.r	.	8ff/L	2.r	.	2.r	.	2.r	2.r	.	2.r	2.r	.	2.r	.	(8ee-\L	.	4g/	.
.	.	.	.	.	.	.	.	.	.	8gg/	.	.	.	.	.	.	.	.	.	.	.	.	8ff\	.	.	.
.	.	4r	.	2ryy	4r	.	.	.	.	8aa/	.	.	.	.	.	.	.	.	.	.	.	.	8gg\	.	4r	.
.	.	.	.	.	.	.	.	.	.	8bb-/	.	.	.	.	.	.	.	.	.	.	.	.	8aa-\)	.	.	.
.	.	4r	.	.	4r	.	.	.	.	8ccc/	.	.	.	.	.	.	.	.	.	.	.	.	8bb-'\	.	4r	.
.	.	.	.	.	.	.	.	.	.	8ccc/J	.	.	.	.	.	.	.	.	.	.	.	.	8bb-'\J	.	.	.
=55	=55	=55	=55	=55	=55	=55	=55	=55	=55	=55	=55	=55	=55	=55	=55	=55	=55	=55	=55	=55	=55	=55	=55	=55	=55	=55
2.r	.	8B-'/L	.	4BB-"/	4BB-"\	.	2.r	2.r	.	4ccc/	8c\L	.	4r	.	8dd'\L	8g\L	p	2.r	2.r	.	2.r	.	4bb-\	.	8f'/L	.
.	.	8B-'/	.	.	.	.	.	.	.	.	8c\	.	.	.	8dd'\	8g\	.	.	.	.	.	.	.	.	8f'/	.
.	.	8B-'/	.	2ryy	4r	.	.	.	.	4r	8c\	.	4r	.	8dd'\	8g\	.	.	.	.	.	.	4r	.	8f'/	.
.	.	8B-'/	.	.	.	.	.	.	.	.	8c\	.	.	.	8dd'\	8g\	.	.	.	.	.	.	.	.	8f'/	.
.	.	8B-'/	.	.	4r	.	.	.	.	4ee/	8c\	.	4A-\ 4BB-\	.	8dd'\	8g\	.	.	.	.	.	.	4dd\	.	8f'/	.
.	.	8B-'/J	.	.	.	.	.	.	.	.	8c\J	.	.	.	8dd'\J	8g\J	.	.	.	.	.	.	.	.	8f'/J	.
=56	=56	=56	=56	=56	=56	=56	=56	=56	=56	=56	=56	=56	=56	=56	=56	=56	=56	=56	=56	=56	=56	=56	=56	=56	=56	=56
*	*	*	*	*	*	*	*v	*v	*	*	*	*	*	*	*	*	*	*	*	*	*	*	*	*	*	*
4r	.	4E-/	.	4E-"/	4E-"\	.	4r	.	4ff/	4f\	.	4G\ 4E-\	.	4ee\	4cc\	.	4r	4r	.	4r	.	4ee-\	.	4g/	.
4r	.	4r	.	2ryy	4r	.	4r	.	2ryy	4r	.	4r	.	4r	4r	.	4r	4r	.	4r	.	4r	.	4r	.
=:!!:	=:!!:	=:!!:	=:!!:	=:!!:	=:!!:	=:!!:	=:!!:	=:!!:	=:!!:	=:!!:	=:!!:	=:!!:	=:!!:	=:!!:	=:!!:	=:!!:	=:!!:	=:!!:	=:!!:	=:!!:	=:!!:	=:!!:	=:!!:	=:!!:	=:!!:
*>D	*	*>D	*	*	*	*	*>D	*	*	*	*	*>D	*	*	*	*	*>D	*	*	*>D	*	*>D	*	*>D	*
*	*	*	*	*v	*v	*	*	*	*	*	*	*	*	*	*	*	*	*	*	*	*	*	*	*	*
*	*	*	*	*>D	*	*	*	*	*	*	*	*	*	*	*	*	*	*	*	*	*	*	*	*
*	*	*	*	*	*	*	*	*v	*v	*	*	*	*	*	*	*	*	*	*	*	*	*	*	*
*	*	*	*	*	*	*	*	*>D	*	*	*	*	*	*	*	*	*	*	*	*	*	*	*
*	*	*	*	*	*	*	*	*	*	*	*	*v	*v	*	*	*	*	*	*	*	*	*	*
*	*	*	*	*	*	*	*	*	*	*	*	*>D	*	*	*	*	*	*	*	*	*	*
4r	.	4r	.	4r	.	4r	.	4r	.	4r	.	4r	.	4r	4r	.	4r	.	4r	.	4r	.
2ryy	.	2ryy	.	2ryy	.	2ryy	.	2ryy	.	2ryy	.	2ryy	.	2ryy	2ryy	.	2ryy	.	2ryy	.	2ryy	.
=57	=57	=57	=57	=57	=57	=57	=57	=57	=57	=57	=57	=57	=57	=57	=57	=57	=57	=57	=57	=57	=57	=57
*	*	*	*	*	*	*	*	*^	*	*	*	*^	*	*	*	*	*	*	*	*	*	*
2.r	.	2.r	.	2.r	.	2.r	.	2.r	2.r	.	2.r	.	2.r	2.r	.	2.r	2.r	.	2.r	.	8ff'\L	.	8b-'\L	.
.	.	.	.	.	.	.	.	.	.	.	.	.	.	.	.	.	.	.	.	.	8ff'\	.	8b-'\	.
.	.	.	.	.	.	.	.	.	.	.	.	.	.	.	.	.	.	.	.	.	8ff'\	.	8b-'\	.
.	.	.	.	.	.	.	.	.	.	.	.	.	.	.	.	.	.	.	.	.	8ff'\	.	8b-'\	.
.	.	.	.	.	.	.	.	.	.	.	.	.	.	.	.	.	.	.	.	.	8ff'\	.	8b-'\	.
.	.	.	.	.	.	.	.	.	.	.	.	.	.	.	.	.	.	.	.	.	8ff'\J	.	8b-'\J	.
=58	=58	=58	=58	=58	=58	=58	=58	=58	=58	=58	=58	=58	=58	=58	=58	=58	=58	=58	=58	=58	=58	=58	=58	=58
!	!	!	!	! Vc.	!	!	!	!	!	!	!	!	!	!	!	!	!	!	!	!	!	!	!	!
!	!	!	!	! (arco)	!	!	!	!	!	!	!	!	!	!	!	!	!	!	!	!	!	!	!	!
*	*	*	*	*	*	*	*	*v	*v	*	*	*	*	*	*	*	*	*	*	*	*	*	*	*
!	!	!	!	!	!	!	!	! II	!	!	!	!	!	!	!	!	!	!	!	!	!	!	!
!	!	!	!	!	!	!	!	!	!	!	!	!	!	!	!	!	!	!	!	!	!	!	!
2.r	.	8b-'\L	.	8en'\L	.	2.r	.	8cc'\L	p	2.r	.	2.r	2.r	.	2.r	2.r	.	2.r	.	2.gg\	.	2.dd-\	.
.	.	8b-'\	.	8e'\	.	.	.	8cc'\	.	.	.	.	.	.	.	.	.	.	.	.	.	.	.
.	.	8b-'\	.	8e'\	.	.	.	8cc'\	.	.	.	.	.	.	.	.	.	.	.	.	.	.	.
.	.	8b-'\	.	8e'\	.	.	.	8cc'\	.	.	.	.	.	.	.	.	.	.	.	.	.	.	.
.	.	8b-'\	.	8e'\	.	.	.	8cc'\	.	.	.	.	.	.	.	.	.	.	.	.	.	.	.
.	.	8b-'\J	.	8e'\J	.	.	.	8cc'\J	.	.	.	.	.	.	.	.	.	.	.	.	.	.	.
=59	=59	=59	=59	=59	=59	=59	=59	=59	=59	=59	=59	=59	=59	=59	=59	=59	=59	=59	=59	=59	=59	=59	=59
2.r	.	2.a-\	.	2.f\	.	2.r	.	2.b-\	.	2.r	.	2.r	2.r	.	2.r	2.r	.	2.r	.	8aa-'\L	.	8cc'\L	.
.	.	.	.	.	.	.	.	.	.	.	.	.	.	.	.	.	.	.	.	8aa-'\	.	8cc'\	.
.	.	.	.	.	.	.	.	.	.	.	.	.	.	.	.	.	.	.	.	8aa-'\	.	8cc'\	.
.	.	.	.	.	.	.	.	.	.	.	.	.	.	.	.	.	.	.	.	8aa-'\	.	8cc'\	.
.	.	.	.	.	.	.	.	.	.	.	.	.	.	.	.	.	.	.	.	8aa-'\	.	8cc'\	.
.	.	.	.	.	.	.	.	.	.	.	.	.	.	.	.	.	.	.	.	8aa-'\J	.	8cc'\J	.
=60	=60	=60	=60	=60	=60	=60	=60	=60	=60	=60	=60	=60	=60	=60	=60	=60	=60	=60	=60	=60	=60	=60	=60
2.r	.	8g-'\L	.	8e-'\L	.	2.r	.	8a-'/L	.	2.r	.	2.r	2.r	.	2.r	2.r	.	2.r	.	2.aan\	.	2.cc-\	.
.	.	8g-'\	.	8e-'\	.	.	.	8a-'/	.	.	.	.	.	.	.	.	.	.	.	.	.	.	.
.	.	8g-'\	.	8e-'\	.	.	.	8a-'/	.	.	.	.	.	.	.	.	.	.	.	.	.	.	.
.	.	8g-'\	.	8e-'\	.	.	.	8a-'/	.	.	.	.	.	.	.	.	.	.	.	.	.	.	.
.	.	8g-'\	.	8e-'\	.	.	.	8a-'/	.	.	.	.	.	.	.	.	.	.	.	.	.	.	.
.	.	8g-'\J	.	8e-'\J	.	.	.	8a-'/J	.	.	.	.	.	.	.	.	.	.	.	.	.	.	.
=61	=61	=61	=61	=61	=61	=61	=61	=61	=61	=61	=61	=61	=61	=61	=61	=61	=61	=61	=61	=61	=61	=61	=61
2.r	.	(2f\	.	[2.d\	.	2.r	.	(2g/	.	2.r	.	2.r	2.r	.	2.r	2.r	.	2.r	.	8bb-'\L	.	8b-'\L	.
.	.	.	.	.	.	.	.	.	.	.	.	.	.	.	.	.	.	.	.	8bb-'\	.	8b-'\	.
.	.	.	.	.	.	.	.	.	.	.	.	.	.	.	.	.	.	.	.	8bb-'\	.	8b-'\	.
.	.	.	.	.	.	.	.	.	.	.	.	.	.	.	.	.	.	.	.	8bb-'\	.	8b-'\	.
.	.	4gn\	.	.	.	.	.	4an/	.	.	.	.	.	.	.	.	.	.	.	8bbn'\	.	8bn'\	.
.	.	.	.	.	.	.	.	.	.	.	.	.	.	.	.	.	.	.	.	8bb'\J	.	8b'\J	.
=62	=62	=62	=62	=62	=62	=62	=62	=62	=62	=62	=62	=62	=62	=62	=62	=62	=62	=62	=62	=62	=62	=62	=62
2.r	.	4a-\)	.	4d\]	.	2.r	.	4b-\)	.	2.r	.	2.r	2.r	.	2.r	2.r	.	2.r	.	(8ccc\L	.	4cc\	.
.	.	.	.	.	.	.	.	.	.	.	.	.	.	.	.	.	.	.	.	8bb-\	.	.	.
.	.	4r	.	4r	.	.	.	4r	.	.	.	.	.	.	.	.	.	.	.	8aa-\	.	4r	.
.	.	.	.	.	.	.	.	.	.	.	.	.	.	.	.	.	.	.	.	8gg\)	.	.	.
.	.	4r	.	4r	.	.	.	4r	.	.	.	.	.	.	.	.	.	.	.	8ff'\	.	4r	.
.	.	.	.	.	.	.	.	.	.	.	.	.	.	.	.	.	.	.	.	8ff'\J	.	.	.
=63	=63	=63	=63	=63	=63	=63	=63	=63	=63	=63	=63	=63	=63	=63	=63	=63	=63	=63	=63	=63	=63	=63	=63
*	*	*	*	*	*	*	*	*^	*	*	*	*	*	*	*	*	*	*	*	*	*	*	*
2.r	.	4a-\	.	4d\	.	2.r	.	2.r	2.r	.	2.r	.	2.r	2.r	.	2.r	2.r	.	2.r	.	(8aa-\L	.	4f/	.
.	.	.	.	.	.	.	.	.	.	.	.	.	.	.	.	.	.	.	.	.	8gg\	.	.	.
.	.	4r	.	4r	.	.	.	.	.	.	.	.	.	.	.	.	.	.	.	.	8ff\	.	4r	.
.	.	.	.	.	.	.	.	.	.	.	.	.	.	.	.	.	.	.	.	.	8ee-\)	.	.	.
.	.	4r	.	4r	.	.	.	.	.	.	.	.	.	.	.	.	.	.	.	.	8dd'\	.	4r	.
.	.	.	.	.	.	.	.	.	.	.	.	.	.	.	.	.	.	.	.	.	8dd'\J	.	.	.
=64	=64	=64	=64	=64	=64	=64	=64	=64	=64	=64	=64	=64	=64	=64	=64	=64	=64	=64	=64	=64	=64	=64	=64	=64
2.r	.	4f\	.	4d\	.	2.r	.	2.r	2.r	.	2.r	.	2.r	2.r	.	2.r	2.r	.	2.r	.	(8ff\L	.	4a-/	.
.	.	.	.	.	.	.	.	.	.	.	.	.	.	.	.	.	.	.	.	.	8ee-\	.	.	.
.	.	4r	.	4r	.	.	.	.	.	.	.	.	.	.	.	.	.	.	.	.	8dd\	.	4r	.
.	.	.	.	.	.	.	.	.	.	.	.	.	.	.	.	.	.	.	.	.	8cc\)	.	.	.
.	.	4r	.	4r	.	.	.	.	.	.	.	.	.	.	.	.	.	.	.	.	8b-'\	.	4r	.
.	.	.	.	.	.	.	.	.	.	.	.	.	.	.	.	.	.	.	.	.	8b-'\J	.	.	.
=65	=65	=65	=65	=65	=65	=65	=65	=65	=65	=65	=65	=65	=65	=65	=65	=65	=65	=65	=65	=65	=65	=65	=65	=65
*	*	*	*	*^	*	*	*	*	*	*	*	*	*	*	*	*	*	*	*	*	*	*	*	*
!	!	!	!	!	! (pizz.)	!	!	!	!	!	!	!	!	!	!	!	!	!	!	!	!	!	!	!	!
!	!	!	!	!	! Basso	!	!	!	!	!	!	!	!	!	!	!	!	!	!	!	!	!	!	!	!
!	!	!	!	!	!	!	!	!	!	!	!	!	!	!	!	!	!	!	!	!	!	!	!	!	!
!	!	!	!	!	!	!	!	!	!	!	!	!	!	!	!	!	!	!	!	!	!	!	!	!	!
2.r	.	[2.e-\	.	(8d-/L	4E-"\	.	2.r	.	2.r	2.r	.	2.r	.	2.r	2.r	.	2.r	2.r	.	2.r	.	2gg\	.	(4ee-\	.
.	.	.	.	8c/	.	.	.	.	.	.	.	.	.	.	.	.	.	.	.	.	.	.	.	.	.
.	.	.	.	8B-/	4r	.	.	.	.	.	.	.	.	.	.	.	.	.	.	.	.	.	.	4e-/)	.
.	.	.	.	8A-/)	.	.	.	.	.	.	.	.	.	.	.	.	.	.	.	.	.	.	.	.	.
.	.	.	.	8G'/	4r	.	.	.	.	.	.	.	.	.	.	.	.	.	.	.	.	[4bb-\	.	4dd-\	.
.	.	.	.	8G'/J	.	.	.	.	.	.	.	.	.	.	.	.	.	.	.	.	.	.	.	.	.
=66	=66	=66	=66	=66	=66	=66	=66	=66	=66	=66	=66	=66	=66	=66	=66	=66	=66	=66	=66	=66	=66	=66	=66	=66	=66
2.r	.	4e-\]	.	(8A-"/L	4E-"\	.	2.r	.	2.r	2.r	.	2.r	.	2.r	2.r	.	2.r	2.r	.	2.r	.	4bb-\]	.	2cc\	.
.	.	.	.	8G"/	.	.	.	.	.	.	.	.	.	.	.	.	.	.	.	.	.	.	.	.	.
.	.	4e-\	.	8F"/	4r	.	.	.	.	.	.	.	.	.	.	.	.	.	.	.	.	4aa-\	.	.	.
.	.	.	.	8E-"/)	.	.	.	.	.	.	.	.	.	.	.	.	.	.	.	.	.	.	.	.	.
.	.	[4f\	.	8Dn'"/	4r	.	.	.	.	.	.	.	.	.	.	.	.	.	.	.	.	4aa-\	.	[4b-\	.
.	.	.	.	8D'"/J	.	.	.	.	.	.	.	.	.	.	.	.	.	.	.	.	.	.	.	.	.
=67	=67	=67	=67	=67	=67	=67	=67	=67	=67	=67	=67	=67	=67	=67	=67	=67	=67	=67	=67	=67	=67	=67	=67	=67	=67
2.r	.	4f\]	.	(8E-"/L	4E-"\	.	2.r	.	2.r	2.r	.	2.r	.	2.r	2.r	.	2.r	2.r	.	2.r	.	(2gg\	.	4b-\]	.
.	.	.	.	8D"/	.	.	.	.	.	.	.	.	.	.	.	.	.	.	.	.	.	.	.	.	.
.	.	4e-\	.	8C"/	4r	.	.	.	.	.	.	.	.	.	.	.	.	.	.	.	.	.	.	4ee-\	.
.	.	.	.	8BB-"/)	.	.	.	.	.	.	.	.	.	.	.	.	.	.	.	.	.	.	.	.	.
.	.	4e-\	.	8AAn'"/	4AAn"\	.	.	.	.	.	.	.	.	.	.	.	.	.	.	.	.	4gg-\)	.	4e-/	.
.	.	.	.	8AA'"/J	.	.	.	.	.	.	.	.	.	.	.	.	.	.	.	.	.	.	.	.	.
=68	=68	=68	=68	=68	=68	=68	=68	=68	=68	=68	=68	=68	=68	=68	=68	=68	=68	=68	=68	=68	=68	=68	=68	=68	=68
2.r	.	4b-\	.	[2.BB-"/	4BB-"\	.	2.r	.	2.r	2.r	.	2.r	.	2.r	2.r	.	2.r	2.r	.	2.r	.	(8ff\L	.	(2.d/	.
.	.	.	.	.	.	.	.	.	.	.	.	.	.	.	.	.	.	.	.	.	.	8ee-\	.	.	.
.	.	4r	.	.	4r	.	.	.	.	.	.	.	.	.	.	.	.	.	.	.	.	8dd\	.	.	.
.	.	.	.	.	.	.	.	.	.	.	.	.	.	.	.	.	.	.	.	.	.	8cc\)	.	.	.
.	.	4r	.	.	4r	.	.	.	.	.	.	.	.	.	.	.	.	.	.	.	.	8b-'\	.	.	.
.	.	.	.	.	.	.	.	.	.	.	.	.	.	.	.	.	.	.	.	.	.	8a-'\J	.	.	.
=69	=69	=69	=69	=69	=69	=69	=69	=69	=69	=69	=69	=69	=69	=69	=69	=69	=69	=69	=69	=69	=69	=69	=69	=69	=69
2.r	.	2.r	.	2.BB-"/_	2.r	.	2.r	.	2.r	2.r	.	2.r	.	2.r	2.r	.	2.r	2.r	.	2.r	.	(8g/L	.	4e-/)	.
.	.	.	.	.	.	.	.	.	.	.	.	.	.	.	.	.	.	.	.	.	.	8b-/)	.	.	.
.	.	.	.	.	.	.	.	.	.	.	.	.	.	.	.	.	.	.	.	.	.	8a-'/	.	4G/	.
.	.	.	.	.	.	.	.	.	.	.	.	.	.	.	.	.	.	.	.	.	.	8g'/	.	.	.
.	.	.	.	.	.	.	.	.	.	.	.	.	.	.	.	.	.	.	.	.	.	8f'/	.	4An/	.
.	.	.	.	.	.	.	.	.	.	.	.	.	.	.	.	.	.	.	.	.	.	8e-'/J	.	.	.
=70	=70	=70	=70	=70	=70	=70	=70	=70	=70	=70	=70	=70	=70	=70	=70	=70	=70	=70	=70	=70	=70	=70	=70	=70	=70
2.r	.	2.r	.	4BB-"/]	2.r	.	2.r	.	2.r	2.r	.	2.r	.	2.r	2.r	.	2.r	2.r	.	2.r	.	(8d/L	.	4B-/	.
.	.	.	.	.	.	.	.	.	.	.	.	.	.	.	.	.	.	.	.	.	.	8f/)	.	.	.
.	.	.	.	4r	.	.	.	.	.	.	.	.	.	.	.	.	.	.	.	.	.	(8e-/	.	4r	.
.	.	.	.	.	.	.	.	.	.	.	.	.	.	.	.	.	.	.	.	.	.	8g/)	.	.	.
.	.	.	.	4r	.	.	.	.	.	.	.	.	.	.	.	.	.	.	.	.	.	(8f/	.	4r	.
.	.	.	.	.	.	.	.	.	.	.	.	.	.	.	.	.	.	.	.	.	.	8a-/J)	.	.	.
=71	=71	=71	=71	=71	=71	=71	=71	=71	=71	=71	=71	=71	=71	=71	=71	=71	=71	=71	=71	=71	=71	=71	=71	=71	=71
*	*	*	*	*v	*v	*	*	*	*	*	*	*	*	*	*	*	*	*	*	*	*	*	*	*	*
2.r	.	2.r	.	2.r	.	2.r	.	2.r	2.r	.	2.r	.	2.r	2.r	.	2.r	2.r	.	2.r	.	(8d/L	.	2.r	.
.	.	.	.	.	.	.	.	.	.	.	.	.	.	.	.	.	.	.	.	.	8f/)	.	.	.
.	.	.	.	.	.	.	.	.	.	.	.	.	.	.	.	.	.	.	.	.	(8e-/	.	.	.
.	.	.	.	.	.	.	.	.	.	.	.	.	.	.	.	.	.	.	.	.	8g/)	.	.	.
.	.	.	.	.	.	.	.	.	.	.	.	.	.	.	.	.	.	.	.	.	(8f/	.	.	.
.	.	.	.	.	.	.	.	.	.	.	.	.	.	.	.	.	.	.	.	.	8a-/J)	.	.	.
=72	=72	=72	=72	=72	=72	=72	=72	=72	=72	=72	=72	=72	=72	=72	=72	=72	=72	=72	=72	=72	=72	=72	=72	=72
*	*	*	*	*	*	*	*	*v	*v	*	*	*	*	*	*	*	*	*	*	*	*	*	*	*
2.r	.	2.r	.	2.r	.	2.r	.	4r	.	2.r	.	2.r	2.r	.	2.r	2.r	.	2.r	.	(8g\L	.	2.r	.
.	.	.	.	.	.	.	.	.	.	.	.	.	.	.	.	.	.	.	.	8b-\)	.	.	.
.	.	.	.	.	.	.	.	4r	.	.	.	.	.	.	.	.	.	.	.	(8a-\	.	.	.
.	.	.	.	.	.	.	.	.	.	.	.	.	.	.	.	.	.	.	.	8cc\)	.	.	.
!	!	!	!	!	!	!	!	! I	!	!	!	!	!	!	!	!	!	!	!	!	!	!	!
.	.	.	.	.	.	.	.	8cc\L	.	.	.	.	.	.	.	.	.	.	.	(8b-\	.	.	.
.	.	.	.	.	.	.	.	8ff\J	.	.	.	.	.	.	.	.	.	.	.	8ee-\J)	.	.	.
=73	=73	=73	=73	=73	=73	=73	=73	=73	=73	=73	=73	=73	=73	=73	=73	=73	=73	=73	=73	=73	=73	=73	=73
!	!	! pizz.	!	!	!	!	!	!	!	!	!	!	!	!	!	!	!	!	!	!	!	! pizz.	!
*	*	*	*	*^	*	*	*	*	*	*	*	*	*	*	*	*	*	*	*	*	*	*	*
!	!	!	!	! pizz.	!	!	!	!	!	!	!	!	!	!	!	!	!	!	!	!	!	!	!	!
!	!	!	!	! Bassi	!	!	!	!	!	!	!	!	!	!	!	!	!	!	!	!	!	!	!	!
!	!	!	!	!	!	!	!	!	!	!	!	!	!	!	!	!	!	!	!	!	!	!	!	!
!	!	!	!	!	!	!	!	!	!	!	!	!	!	!	!	!	!	!	!	!	!	!	!	!
2.r	.	4G"/	.	4G"/	4G"\	.	2.r	.	8cc/L	.	2.r	.	2.r	2.r	.	2.r	2.r	.	2.r	.	(8b-/L	.	4e-"/ 4B-"/	.
.	.	.	.	.	.	.	.	.	8a/	.	.	.	.	.	.	.	.	.	.	.	8g/)	.	.	.
.	.	4A-"/	.	4A-"/	4A-"\	.	.	.	8dd/	.	.	.	.	.	.	.	.	.	.	.	(8cc/	.	4e-"/ 4c"/	.
.	.	.	.	.	.	.	.	.	8b-/	.	.	.	.	.	.	.	.	.	.	.	8a-/	.	.	.
.	.	4B-"/	.	4B-"/	4B-"\	.	.	.	8g/	.	.	.	.	.	.	.	.	.	.	.	8f/	.	4d"/ 4A-"/	.
.	.	.	.	.	.	.	.	.	8e/J	.	.	.	.	.	.	.	.	.	.	.	8d/J)	.	.	.
=74	=74	=74	=74	=74	=74	=74	=74	=74	=74	=74	=74	=74	=74	=74	=74	=74	=74	=74	=74	=74	=74	=74	=74	=74
2.r	.	4E-"/	.	4E-"/	4E-"\	.	2.r	.	(8f\L	.	2.r	.	2.r	2.r	.	2.r	2.r	.	2.r	.	(8e-\L	.	4e-"/ 4G"/	.
.	.	.	.	.	.	.	.	.	8a\	.	.	.	.	.	.	.	.	.	.	.	8g\	.	.	.
.	.	4r	.	2ryy	4r	.	.	.	8cc\	.	.	.	.	.	.	.	.	.	.	.	8b-\	.	4r	.
.	.	.	.	.	.	.	.	.	8ff\	.	.	.	.	.	.	.	.	.	.	.	8ee-\)	.	.	.
.	.	4r	.	.	4r	.	.	.	8aa\	.	.	.	.	.	.	.	.	.	.	.	(8gg\	.	4r	.
.	.	.	.	.	.	.	.	.	8ff\J)	.	.	.	.	.	.	.	.	.	.	.	8ee-\J)	.	.	.
=75	=75	=75	=75	=75	=75	=75	=75	=75	=75	=75	=75	=75	=75	=75	=75	=75	=75	=75	=75	=75	=75	=75	=75	=75
*	*	*	*	*v	*v	*	*	*	*^	*	*	*	*	*	*	*	*	*	*	*	*	*	*	*
!	!	!	!	!	!	!	!	!	!	!	!	!	!	!	!	!	!	!	!	!	!	!	! arco	!
2.r	.	2.r	.	2.r	.	2.r	.	4ee/	(8c\L	.	2.r	.	2.r	2.r	.	2.r	2.r	.	2.r	.	4dd\	.	(8B-/L	.
.	.	.	.	.	.	.	.	.	8e\	.	.	.	.	.	.	.	.	.	.	.	.	.	8d/	.
.	.	.	.	.	.	.	.	4r	8g\	.	.	.	.	.	.	.	.	.	.	.	4r	.	8f/	.
.	.	.	.	.	.	.	.	.	8b-\	.	.	.	.	.	.	.	.	.	.	.	.	.	8a-/)	.
.	.	.	.	.	.	.	.	8bb-/L	8dd\	.	.	.	.	.	.	.	.	.	.	.	(8aa-\L	.	(8cc/	.
.	.	.	.	.	.	.	.	8gg/J	8b-\J)	.	.	.	.	.	.	.	.	.	.	.	8ff\J)	.	8a-/J)	.
=76	=76	=76	=76	=76	=76	=76	=76	=76	=76	=76	=76	=76	=76	=76	=76	=76	=76	=76	=76	=76	=76	=76	=76	=76
!	!	! arco	!	!	!	!	!	!	!	!	! I	!	!	!	!	!	!	!	!	!	!	!	!	!
2.r	.	(8G\L	.	2.r	.	2.r	.	4ff/	4a\	.	(8G\L	.	2.r	2.r	.	2.r	2.r	.	2.r	.	4ee-\	.	4g/	.
.	.	8B-\	.	.	.	.	.	.	.	.	8B-\	.	.	.	.	.	.	.	.	.	.	.	.	.
.	.	8d\	.	.	.	.	.	4r	4r	.	8d\	.	.	.	.	.	.	.	.	.	4r	.	4r	.
.	.	8e-\	.	.	.	.	.	.	.	.	8e-\	.	.	.	.	.	.	.	.	.	.	.	.	.
.	.	8g\	.	.	.	.	.	8ccc/L	4r	.	8g\	.	.	.	.	.	.	.	.	.	(8bb-\L	.	(8e-/L	.
.	.	8e-\J)	.	.	.	.	.	8aa/J	.	.	8e-\J)	.	.	.	.	.	.	.	.	.	8gg\J)	.	8ee-/J)	.
=77	=77	=77	=77	=77	=77	=77	=77	=77	=77	=77	=77	=77	=77	=77	=77	=77	=77	=77	=77	=77	=77	=77	=77	=77
*	*	*	*	*^	*	*	*	*	*	*	*	*	*	*	*	*	*	*	*	*	*	*	*	*
!	!	!	!	! Vc. arco	!	!	!	!	!	!	!	!	!	!	!	!	!	!	!	!	!	!	!	!	!
!	!	!	!	!	!	!	!	!	!	!	!	!	!	!	!	!	!	!	!	!	!	!	!	!	!
2.r	.	4a-\	.	(8AA-/L	2.r	.	2.r	.	2ddd/	2.r	.	4c\	.	2.r	2.r	.	2.r	2.r	.	2.r	.	2ccc\	.	4ee-\	.
.	.	.	.	8C/	.	.	.	.	.	.	.	.	.	.	.	.	.	.	.	.	.	.	.	.	.
.	.	4r	.	8F/	.	.	.	.	.	.	.	4r	.	.	.	.	.	.	.	.	.	.	.	4r	.
.	.	.	.	8A-/)	.	.	.	.	.	.	.	.	.	.	.	.	.	.	.	.	.	.	.	.	.
.	.	4r	.	8c'/	.	.	.	.	8bb-/L	.	.	4r	.	.	.	.	.	.	.	.	.	(8aa-\L	.	(8e-/L	.
.	.	.	.	8A-'/J	.	.	.	.	8gg/J	.	.	.	.	.	.	.	.	.	.	.	.	8ff\J)	.	8f/J)	.
=78	=78	=78	=78	=78	=78	=78	=78	=78	=78	=78	=78	=78	=78	=78	=78	=78	=78	=78	=78	=78	=78	=78	=78	=78	=78
!	!	!	!	!	! pizz	!	!	!	!	!	!	!	!	!	!	!	!	!	!	!	!	!	!	!	!
2.r	.	4g\	.	4B-/	4BB-"\	.	2.r	.	8ff/L	2.r	.	2.r	.	2.r	2.r	.	2.r	2.r	.	2.r	.	(8ee-\L	.	4g/	.
.	.	.	.	.	.	.	.	.	8gg/	.	.	.	.	.	.	.	.	.	.	.	.	8ff\	.	.	.
.	.	4r	.	2ryy	4r	.	.	.	8aa/	.	.	.	.	.	.	.	.	.	.	.	.	8gg\	.	4r	.
.	.	.	.	.	.	.	.	.	8bb-/	.	.	.	.	.	.	.	.	.	.	.	.	8aa-\)	.	.	.
.	.	4r	.	.	4r	.	.	.	8ccc/	.	.	.	.	.	.	.	.	.	.	.	.	8bb-'\	.	4r	.
.	.	.	.	.	.	.	.	.	8ccc/J	.	.	.	.	.	.	.	.	.	.	.	.	8bb-'\J	.	.	.
=79	=79	=79	=79	=79	=79	=79	=79	=79	=79	=79	=79	=79	=79	=79	=79	=79	=79	=79	=79	=79	=79	=79	=79	=79	=79
2.r	.	8B-'/L	.	4BB-"/	4BB-"\	.	2.r	.	4ccc/	8c\L	.	4r	.	8dd'\L	8g\L	.	2.r	2.r	.	2.r	.	4bb-\	.	8f'/L	.
.	.	8B-'/	.	.	.	.	.	.	.	8c\	.	.	.	8dd'\	8g\	.	.	.	.	.	.	.	.	8f'/	.
.	.	8B-'/	.	4r	4r	.	.	.	4r	8c\	.	4r	.	8dd'\	8g\	.	.	.	.	.	.	4r	.	8f'/	.
.	.	8B-'/	.	.	.	.	.	.	.	8c\	.	.	.	8dd'\	8g\	.	.	.	.	.	.	.	.	8f'/	.
.	.	8B-'/	.	4BB-"/	4BB-"\	.	.	.	4ee/	8c\	.	4A-\ 4F\	.	8dd'\	8g\	.	.	.	.	.	.	4dd\	.	8f'/	.
.	.	8B-'/J	.	.	.	.	.	.	.	8c\J	.	.	.	8dd'\J	8g\J	.	.	.	.	.	.	.	.	8f'/J	.
=80	=80	=80	=80	=80	=80	=80	=80	=80	=80	=80	=80	=80	=80	=80	=80	=80	=80	=80	=80	=80	=80	=80	=80	=80	=80
*	*	*	*	*	*	*	*	*	*	*	*	*	*	*v	*v	*	*	*	*	*	*	*	*	*	*
*	*	*	*	*	*	*	*	*	*	*	*	*	*	*	*	*v	*v	*	*	*	*	*	*	*
4r	.	4e-\	.	4E-"/	4E-"\	.	4r	.	4ff/	4f\	.	4G\ 4E-\	.	4ee\ 4cc\	.	4r	.	4r	.	4ee-\	.	4g/	.
! Menuetto D.C.	!	! Menuetto D.C.	!	! Menuetto D.C.	!	!	! Menuetto D.C.	!	!	! Menuetto D.C.	!	! Menuetto D.C.	!	! Menuetto D.C.	!	! Menuetto D.C.	!	! Menuetto D.C.	!	! Menuetto D.C.	!	! Menuetto D.C.	!
4r	.	4r	.	2ryy	4r	.	4r	.	2ryy	4r	.	4r	.	4r	.	4r	.	4r	.	4r	.	4r	.
==:|!	==:|!	==:|!	==:|!	==:|!	==:|!	==:|!	==:|!	==:|!	==:|!	==:|!	==:|!	==:|!	==:|!	==:|!	==:|!	==:|!	==:|!	==:|!	==:|!	==:|!	==:|!	==:|!	==:|!
*-	*-	*-	*-	*-	*-	*-	*-	*-	*-	*-	*-	*-	*-	*-	*-	*-	*-	*-	*-	*-	*-	*-	*-
!!!RWG: Appoggiaturas of spine 'Flauto 1, 2' need manual editing in measures: 1, 3, 5, 19, 21, 23, 32, 34, 36
!!!RWG: Appoggiaturas of spine 'Viola' need manual editing in measures: 20, 22
!!!RWG: Appoggiaturas of spine 'Violoncello e Basso' need manual editing in measures: 20, 22
!!!RWG: Appoggiaturas of spine 'Fagotto 1, 2' need manual editing in measures: 32, 34
!!!RWG: Appoggiaturas of spine 'Violino I' need manual editing in measures: 1, 3, 5, 19, 21, 23, 32, 34, 36
!!!RWG: Appoggiaturas of spine 'Violino II' need manual editing in measures: 20, 22
!!!RWG: Key is interpreted using the Humdrum key tool.
!!!OPT: Drumroll
!!!AFT: stage2
!!!END: 1995/05/17
!!format changes:
!!content changes:
!!public access: complete
!!!KEY: 2525782395
!!!EMD: Converted from MuseData to Humdrum Dec 16, 2000, by Andreas Kornstaedt using muse2kern.
